; generated by PrusaSlicer 2.0.0+win64 on 2019-06-27 at 14:42:26

; 

; external perimeters extrusion width = 0.45mm
; perimeters extrusion width = 0.45mm
; infill extrusion width = 0.45mm
; solid infill extrusion width = 0.45mm
; top infill extrusion width = 0.40mm
; first layer extrusion width = 0.42mm

M73 P0 R44
M73 Q0 S44
M201 X1000 Y1000 Z1000 E5000 ; sets maximum accelerations, mm/sec^2
M203 X200 Y200 Z12 E120 ; sets maximum feedrates, mm/sec
M204 P1250 R1250 T1250 ; sets acceleration (P, T) and retract acceleration (R), mm/sec^2
M205 X8.00 Y8.00 Z0.40 E1.50 ; sets the jerk limits, mm/sec
M205 S0 T0 ; sets the minimum extruding and travel feed rate, mm/sec
M107
M115 U3.7.1 ; tell printer latest fw version
G90 ; use absolute coordinates
M83 ; extruder relative mode
M104 S215 ; set extruder temp
M140 S60 ; set bed temp
M190 S60 ; wait for bed temp
M109 S215 ; wait for extruder temp
G28 W ; home all without mesh bed level
G80 ; mesh bed leveling
G1 Y-3.0 F1000.0 ; go outside print area
G92 E0.0
G1 X60.0 E9.0 F1000.0 ; intro line
M73 Q0 S44
M73 P0 R44
G1 X100.0 E12.5 F1000.0 ; intro line
G92 E0.0
M221 S95
M900 K30 ; Filament gcode
G21 ; set units to millimeters
G90 ; use absolute coordinates
M83 ; use relative distances for extrusion
;BEFORE_LAYER_CHANGE
G92 E0.0
;0.2


G1 E-0.80000 F2100.00000
G1 Z0.600 F10800.000
;AFTER_LAYER_CHANGE
;0.2
G1 X112.640 Y94.809
G1 Z0.200
G1 E0.80000 F2100.00000
M204 S1000
G1 F1200
G1 X113.216 Y93.775 E0.03712
G1 X113.786 Y93.206 E0.02524
G1 X114.380 Y92.824 E0.02214
G1 X115.033 Y92.569 E0.02199
G1 X115.834 Y92.440 E0.02542
G1 X134.004 Y92.434 E0.56972
G1 X134.607 Y92.487 E0.01897
G1 X135.234 Y92.657 E0.02039
G1 X135.918 Y92.997 E0.02396
G1 X136.403 Y93.368 E0.01914
G1 X136.838 Y93.842 E0.02017
G1 X137.166 Y94.360 E0.01923
G1 X137.400 Y94.925 E0.01915
G1 X137.536 Y95.544 E0.01989
G1 X137.564 Y114.091 E0.58151
G1 X137.362 Y115.184 E0.03486
G1 X137.136 Y115.696 E0.01754
G1 X136.785 Y116.224 E0.01988
G1 X136.208 Y116.798 E0.02552
G1 X135.591 Y117.191 E0.02294
G1 X134.922 Y117.442 E0.02239
G1 X134.064 Y117.565 E0.02718
G1 X115.901 Y117.564 E0.56949
G1 X114.808 Y117.360 E0.03486
G1 X113.774 Y116.783 E0.03712
G1 X113.199 Y116.204 E0.02558
G1 X112.808 Y115.588 E0.02289
G1 X112.557 Y114.918 E0.02243
G1 X112.435 Y114.062 E0.02711
G1 X112.436 Y95.901 E0.56942
G1 X112.629 Y94.868 E0.03295
G1 X113.016 Y94.881 F10800.000
G1 F1200
G1 X113.238 Y94.411 E0.01632
G1 X113.629 Y93.872 E0.02087
G1 X114.094 Y93.444 E0.01982
G1 X114.613 Y93.129 E0.01904
G1 X115.161 Y92.926 E0.01831
G1 X115.886 Y92.814 E0.02301
G1 X134.004 Y92.811 E0.56807
G1 X135.101 Y93.010 E0.03496
G1 X135.729 Y93.323 E0.02201
G1 X136.162 Y93.658 E0.01715
G1 X136.840 Y94.550 E0.03513
G1 X137.165 Y95.621 E0.03508
G1 X137.187 Y114.084 E0.57891
G1 X136.985 Y115.116 E0.03297
G1 X136.764 Y115.585 E0.01625
G1 X136.374 Y116.125 E0.02088
G1 X135.902 Y116.558 E0.02009
G1 X135.362 Y116.882 E0.01976
G1 X134.650 Y117.120 E0.02352
G1 X134.026 Y117.188 E0.01970
G1 X115.912 Y117.187 E0.56793
G1 X114.881 Y116.984 E0.03296
G1 X114.414 Y116.764 E0.01617
G1 X113.872 Y116.372 E0.02098
G1 X113.439 Y115.900 E0.02009
G1 X113.115 Y115.356 E0.01985
G1 X112.879 Y114.645 E0.02349
G1 X112.812 Y114.025 E0.01956
G1 X112.813 Y95.912 E0.56790
G1 X113.004 Y94.940 E0.03106
G1 F8640
G1 X113.238 Y94.411 E-0.13363
G1 X113.629 Y93.872 E-0.15369
G1 X114.094 Y93.444 E-0.14599
G1 X114.613 Y93.129 E-0.14018
G1 X115.161 Y92.926 E-0.13481
G1 X115.382 Y92.892 E-0.05170
G1 E-0.04000 F2100.00000
G1 Z0.800 F10800.000
G1 X115.709 Y95.709
G1 Z0.200
G1 E0.80000 F2100.00000
G1 F1200
G1 X115.874 Y95.614 E0.00596
G1 X116.046 Y95.587 E0.00546
G1 X134.062 Y95.599 E0.56488
G1 X134.184 Y95.639 E0.00403
G1 X134.287 Y95.713 E0.00396
G1 X134.362 Y95.816 E0.00400
G1 X134.413 Y96.023 E0.00668
G1 X134.413 Y113.954 E0.56220
G1 X134.386 Y114.126 E0.00547
G1 X134.291 Y114.291 E0.00597
G1 X134.125 Y114.386 E0.00597
G1 X133.954 Y114.413 E0.00545
G1 X116.046 Y114.413 E0.56148
G1 X115.875 Y114.386 E0.00545
G1 X115.709 Y114.291 E0.00598
G1 X115.614 Y114.126 E0.00597
G1 X115.587 Y113.954 E0.00546
G1 X115.587 Y96.046 E0.56148
G1 X115.614 Y95.875 E0.00545
G1 X115.674 Y95.757 E0.00413
G1 X115.442 Y95.442 F10800.000
G1 F1200
G1 X115.530 Y95.367 E0.00362
G1 X115.756 Y95.251 E0.00797
G1 X116.017 Y95.210 E0.00827
G1 X134.122 Y95.222 E0.56768
G1 X134.358 Y95.299 E0.00777
G1 X134.557 Y95.443 E0.00772
G1 X134.702 Y95.643 E0.00775
G1 X134.780 Y95.885 E0.00797
G1 X134.790 Y96.008 E0.00388
G1 X134.790 Y113.983 E0.56360
G1 X134.749 Y114.244 E0.00827
G1 X134.634 Y114.470 E0.00794
G1 X134.558 Y114.558 E0.00365
G1 X134.470 Y114.633 E0.00362
G1 X134.243 Y114.749 E0.00799
G1 X133.983 Y114.790 E0.00825
G1 X116.017 Y114.790 E0.56334
G1 X115.757 Y114.749 E0.00825
G1 X115.530 Y114.633 E0.00799
G1 X115.442 Y114.558 E0.00362
G1 X115.367 Y114.470 E0.00364
G1 X115.251 Y114.244 E0.00796
G1 X115.210 Y113.983 E0.00826
G1 X115.210 Y96.017 E0.56334
G1 X115.251 Y95.757 E0.00825
G1 X115.403 Y95.487 E0.00969
G1 X115.556 Y95.462 F10800.000
G1 F8640
G1 X115.530 Y95.367 E-0.04041
G1 X115.756 Y95.251 E-0.05868
G1 X116.017 Y95.210 E-0.06087
G1 X118.615 Y95.212 E-0.60004
G1 E-0.04000 F2100.00000
G1 Z0.800 F10800.000
G1 X115.700 Y113.342
G1 Z0.200
G1 E0.80000 F2100.00000
G1 F1200
G1 X116.489 Y114.130 E0.03504
G1 X117.023 Y114.130 E0.01680
G1 X115.870 Y112.977 E0.05126
G1 X115.870 Y112.442 E0.01680
G1 X117.558 Y114.130 E0.07501
G1 X118.092 Y114.130 E0.01680
G1 X115.870 Y111.908 E0.09877
G1 X115.870 Y111.373 E0.01680
G1 X118.627 Y114.130 E0.12253
G1 X119.161 Y114.130 E0.01680
G1 X115.870 Y110.839 E0.14628
G1 X115.870 Y110.304 E0.01680
G1 X119.696 Y114.130 E0.17004
G1 X120.230 Y114.130 E0.01680
G1 X115.870 Y109.770 E0.19380
G1 X115.870 Y109.235 E0.01680
G1 X120.765 Y114.130 E0.21755
G1 X121.299 Y114.130 E0.01680
G1 X115.870 Y108.701 E0.24131
G1 X115.870 Y108.166 E0.01680
G1 X121.834 Y114.130 E0.26507
G1 X122.368 Y114.130 E0.01680
G1 X115.870 Y107.632 E0.28883
G1 X115.870 Y107.097 E0.01680
G1 X122.903 Y114.130 E0.31258
G1 X123.437 Y114.130 E0.01680
G1 X115.870 Y106.563 E0.33634
G1 X115.870 Y106.028 E0.01680
G1 X123.972 Y114.130 E0.36010
G1 X124.506 Y114.130 E0.01680
G1 X115.870 Y105.494 E0.38385
G1 X115.870 Y104.959 E0.01680
G1 X125.041 Y114.130 E0.40761
G1 X125.575 Y114.130 E0.01680
G1 X115.870 Y104.425 E0.43137
G1 X115.870 Y103.890 E0.01680
G1 X126.110 Y114.130 E0.45513
G1 X126.644 Y114.130 E0.01680
G1 X115.870 Y103.356 E0.47888
G1 X115.870 Y102.821 E0.01680
G1 X127.179 Y114.130 E0.50264
G1 X127.713 Y114.130 E0.01680
G1 X115.870 Y102.287 E0.52640
G1 X115.870 Y101.752 E0.01680
G1 X128.248 Y114.130 E0.55015
G1 X128.783 Y114.130 E0.01680
G1 X115.870 Y101.217 E0.57391
G1 X115.870 Y100.683 E0.01680
G1 X129.317 Y114.130 E0.59767
G1 X129.852 Y114.130 E0.01680
G1 X115.870 Y100.148 E0.62142
G1 X115.870 Y99.614 E0.01680
G1 X130.386 Y114.130 E0.64518
G1 X130.921 Y114.130 E0.01680
G1 X115.870 Y99.079 E0.66894
G1 X115.870 Y98.545 E0.01680
G1 X131.455 Y114.130 E0.69270
G1 X131.990 Y114.130 E0.01680
G1 X115.870 Y98.010 E0.71645
G1 X115.870 Y97.476 E0.01680
G1 X132.524 Y114.130 E0.74021
G1 X133.059 Y114.130 E0.01680
G1 X115.870 Y96.941 E0.76397
G1 X115.870 Y96.407 E0.01680
G1 X133.593 Y114.130 E0.78772
G1 X133.932 Y114.130 E0.01063
G1 X134.030 Y114.115 E0.00312
G1 X134.082 Y114.084 E0.00190
G1 X115.917 Y95.916 E0.80744
G1 X115.970 Y95.886 E0.00194
G1 X116.068 Y95.870 E0.00313
G1 X116.402 Y95.870 E0.01049
G1 X134.130 Y113.598 E0.78793
G1 X134.130 Y113.063 E0.01680
G1 X116.937 Y95.870 E0.76415
G1 X117.472 Y95.871 E0.01681
G1 X134.130 Y112.529 E0.74038
G1 X134.130 Y111.994 E0.01680
G1 X118.007 Y95.871 E0.71661
G1 X118.542 Y95.872 E0.01681
G1 X134.130 Y111.460 E0.69283
G1 X134.130 Y110.925 E0.01680
G1 X119.077 Y95.872 E0.66906
G1 X119.612 Y95.872 E0.01681
G1 X134.130 Y110.391 E0.64529
G1 X134.130 Y109.856 E0.01680
G1 X120.146 Y95.873 E0.62151
G1 X120.681 Y95.873 E0.01681
G1 X134.130 Y109.322 E0.59774
G1 X134.130 Y108.787 E0.01680
G1 X121.216 Y95.873 E0.57397
G1 X121.751 Y95.874 E0.01681
G1 X134.130 Y108.253 E0.55020
G1 X134.130 Y107.718 E0.01680
G1 X122.286 Y95.874 E0.52642
G1 X122.821 Y95.874 E0.01681
G1 X134.130 Y107.184 E0.50265
G1 X134.130 Y106.649 E0.01680
G1 X123.356 Y95.875 E0.47888
M73 Q2 S43
G1 X123.891 Y95.875 E0.01681
G1 X134.130 Y106.115 E0.45510
M73 P2 R43
G1 X134.130 Y105.580 E0.01680
G1 X124.425 Y95.876 E0.43133
G1 X124.960 Y95.876 E0.01681
G1 X134.130 Y105.046 E0.40756
G1 X134.130 Y104.511 E0.01680
G1 X125.495 Y95.876 E0.38378
G1 X126.030 Y95.877 E0.01681
G1 X134.130 Y103.977 E0.36001
G1 X134.130 Y103.442 E0.01680
G1 X126.565 Y95.877 E0.33624
G1 X127.100 Y95.877 E0.01681
G1 X134.130 Y102.908 E0.31246
G1 X134.130 Y102.373 E0.01680
G1 X127.635 Y95.878 E0.28869
G1 X128.170 Y95.878 E0.01681
G1 X134.130 Y101.839 E0.26492
G1 X134.130 Y101.304 E0.01680
G1 X128.704 Y95.878 E0.24115
G1 X129.239 Y95.879 E0.01681
G1 X134.130 Y100.770 E0.21737
G1 X134.130 Y100.235 E0.01680
G1 X129.774 Y95.879 E0.19360
G1 X130.309 Y95.879 E0.01681
G1 X134.130 Y99.700 E0.16983
G1 X134.130 Y99.166 E0.01680
G1 X130.844 Y95.880 E0.14605
G1 X131.379 Y95.880 E0.01681
G1 X134.130 Y98.631 E0.12228
G1 X134.130 Y98.097 E0.01680
G1 X131.914 Y95.881 E0.09851
G1 X132.449 Y95.881 E0.01681
G1 X134.130 Y97.562 E0.07473
G1 X134.130 Y97.028 E0.01680
G1 X132.984 Y95.881 E0.05096
G1 X133.518 Y95.882 E0.01681
G1 X134.300 Y96.663 E0.03473
M106 S255
;BEFORE_LAYER_CHANGE
G92 E0.0
;0.35


G1 F8640
G1 X133.518 Y95.882 E-0.25517
G1 X132.984 Y95.881 E-0.12351
G1 X134.130 Y97.028 E-0.37442
G1 X134.130 Y97.058 E-0.00691
G1 E-0.04000 F2100.00000
G1 Z0.800 F10800.000
;AFTER_LAYER_CHANGE
;0.35
G1 X137.536 Y95.544
G1 Z0.350
G1 E0.80000 F2100.00000
G1 F3000
G1 X137.564 Y114.091 E0.44855
G1 X137.362 Y115.184 E0.02689
G1 X137.136 Y115.696 E0.01353
G1 X136.785 Y116.224 E0.01534
G1 X136.208 Y116.798 E0.01968
G1 X135.591 Y117.191 E0.01769
G1 X134.922 Y117.442 E0.01727
G1 X134.064 Y117.565 E0.02096
G1 X115.901 Y117.564 E0.43927
G1 X114.808 Y117.360 E0.02689
G1 X113.774 Y116.783 E0.02864
G1 X113.199 Y116.204 E0.01973
G1 X112.808 Y115.588 E0.01766
G1 X112.557 Y114.918 E0.01730
G1 X112.435 Y114.062 E0.02091
G1 X112.436 Y95.901 E0.43922
G1 X112.640 Y94.809 E0.02687
G1 X113.216 Y93.775 E0.02864
G1 X113.786 Y93.206 E0.01947
G1 X114.380 Y92.824 E0.01708
G1 X115.033 Y92.569 E0.01696
G1 X115.834 Y92.440 E0.01961
G1 X134.004 Y92.434 E0.43945
G1 X134.607 Y92.487 E0.01463
G1 X135.234 Y92.657 E0.01573
G1 X135.918 Y92.997 E0.01848
G1 X136.403 Y93.368 E0.01476
G1 X136.838 Y93.842 E0.01556
G1 X137.166 Y94.360 E0.01483
G1 X137.400 Y94.925 E0.01477
G1 X137.523 Y95.486 E0.01389
G1 F8640
G1 X137.530 Y98.777 E-0.76000
G1 E-0.04000 F2100.00000
G1 Z0.950 F10800.000
G1 X134.138 Y95.674
G1 Z0.350
G1 E0.80000 F2100.00000
M204 S800
G1 F2700
G1 X134.287 Y95.791 E0.00494
G1 X134.357 Y96.025 E0.00638
G1 X134.357 Y113.975 E0.46769
G1 X134.343 Y114.087 E0.00294
G1 X134.251 Y114.251 E0.00493
G1 X134.108 Y114.332 E0.00427
G1 X133.949 Y114.357 E0.00418
G1 X116.051 Y114.357 E0.46637
G1 X115.892 Y114.332 E0.00419
G1 X115.749 Y114.251 E0.00429
G1 X115.668 Y114.109 E0.00425
G1 X115.643 Y113.949 E0.00421
G1 X115.643 Y96.025 E0.46702
G1 X115.696 Y95.818 E0.00558
G1 X115.749 Y95.749 E0.00226
G1 X115.914 Y95.657 E0.00493
G1 X116.025 Y95.643 E0.00292
G1 X134.081 Y95.656 E0.47046
M204 S1000
G1 X134.240 Y95.264 F10800.000
M204 S800
G1 F1500
G1 X134.343 Y95.307 E0.00292
G1 X134.553 Y95.459 E0.00676
G1 X134.626 Y95.545 E0.00293
G1 X134.686 Y95.643 E0.00299
G1 X134.765 Y95.888 E0.00671
G1 X134.775 Y96.009 E0.00317
G1 X134.775 Y113.991 E0.46854
G1 X134.738 Y114.232 E0.00636
G1 X134.622 Y114.460 E0.00666
G1 X134.547 Y114.548 E0.00299
G1 X134.462 Y114.621 E0.00293
G1 X134.239 Y114.734 E0.00653
G1 X133.982 Y114.775 E0.00676
G1 X116.018 Y114.775 E0.46808
G1 X115.761 Y114.734 E0.00676
G1 X115.540 Y114.622 E0.00647
G1 X115.452 Y114.547 E0.00300
G1 X115.379 Y114.461 E0.00296
G1 X115.266 Y114.240 E0.00647
G1 X115.225 Y113.982 E0.00679
G1 X115.225 Y96.009 E0.46831
G1 X115.235 Y95.888 E0.00317
G1 X115.314 Y95.642 E0.00672
G1 X115.452 Y95.452 E0.00612
G1 X115.538 Y95.379 E0.00293
G1 X115.768 Y95.262 E0.00672
G1 X116.009 Y95.225 E0.00635
G1 X134.126 Y95.237 E0.47207
G1 X134.181 Y95.250 E0.00147
M204 S1000
G1 X134.269 Y95.372 F10800.000
G1 F8640
G1 X134.343 Y95.307 E-0.03963
G1 X134.553 Y95.459 E-0.05995
G1 X134.626 Y95.545 E-0.02595
G1 X134.686 Y95.643 E-0.02646
G1 X134.765 Y95.888 E-0.05950
G1 X134.775 Y96.009 E-0.02806
G1 X134.775 Y98.263 E-0.52044
G1 E-0.04000 F2100.00000
G1 Z0.950 F10800.000
G1 X115.768 Y96.759
G1 Z0.350
G1 E0.80000 F2100.00000
M204 S1250
G1 F3760
G1 X116.571 Y95.957 E0.02964
G1 X117.162 Y95.957 E0.01545
G1 X115.956 Y97.163 E0.04454
G1 X115.956 Y97.755 E0.01546
G1 X117.754 Y95.957 E0.06639
G1 X118.346 Y95.958 E0.01545
G1 X115.956 Y98.347 E0.08824
G1 X115.956 Y98.939 E0.01546
G1 X118.938 Y95.958 E0.11009
G1 X119.529 Y95.958 E0.01545
G1 X115.956 Y99.532 E0.13193
G1 X115.956 Y100.124 E0.01546
G1 X120.121 Y95.959 E0.15378
G1 X120.713 Y95.959 E0.01545
G1 X115.956 Y100.716 E0.17563
G1 X115.956 Y101.308 E0.01546
G1 X121.304 Y95.960 E0.19748
G1 X121.896 Y95.960 E0.01545
G1 X115.956 Y101.900 E0.21933
G1 X115.956 Y102.492 E0.01546
G1 X122.488 Y95.960 E0.24118
G1 X123.079 Y95.961 E0.01545
G1 X115.956 Y103.084 E0.26302
G1 X115.956 Y103.676 E0.01546
G1 X123.671 Y95.961 E0.28487
G1 X124.263 Y95.962 E0.01545
G1 X115.956 Y104.268 E0.30672
G1 X115.956 Y104.860 E0.01546
G1 X124.855 Y95.962 E0.32857
G1 X125.446 Y95.962 E0.01545
G1 X115.956 Y105.452 E0.35042
G1 X115.956 Y106.045 E0.01546
G1 X126.038 Y95.963 E0.37226
G1 X126.630 Y95.963 E0.01545
G1 X115.956 Y106.637 E0.39411
G1 X115.956 Y107.229 E0.01546
G1 X127.221 Y95.964 E0.41596
G1 X127.813 Y95.964 E0.01545
G1 X115.956 Y107.821 E0.43781
G1 X115.956 Y108.413 E0.01546
G1 X128.405 Y95.964 E0.45966
G1 X128.996 Y95.965 E0.01545
G1 X115.956 Y109.005 E0.48151
G1 X115.956 Y109.597 E0.01546
G1 X129.588 Y95.965 E0.50335
G1 X130.180 Y95.966 E0.01545
G1 X115.956 Y110.189 E0.52520
G1 X115.956 Y110.781 E0.01546
G1 X130.772 Y95.966 E0.54705
G1 X131.363 Y95.966 E0.01545
G1 X115.956 Y111.373 E0.56890
G1 X115.956 Y111.966 E0.01546
G1 X131.955 Y95.967 E0.59075
G1 X132.547 Y95.967 E0.01545
G1 X115.956 Y112.558 E0.61260
G1 X115.956 Y113.150 E0.01546
G1 X133.138 Y95.967 E0.63444
G1 X133.730 Y95.968 E0.01545
G1 X115.956 Y113.742 E0.65629
G1 X115.956 Y113.924 E0.00477
G1 X115.979 Y114.021 E0.00259
G1 X116.075 Y114.044 E0.00259
G1 X116.246 Y114.044 E0.00446
G1 X134.044 Y96.246 E0.65717
G1 X134.044 Y96.838 E0.01546
G1 X116.838 Y114.044 E0.63531
G1 X117.430 Y114.044 E0.01546
G1 X134.044 Y97.430 E0.61344
G1 X134.044 Y98.022 E0.01546
G1 X118.022 Y114.044 E0.59158
G1 X118.615 Y114.044 E0.01546
G1 X134.044 Y98.615 E0.56972
G1 X134.044 Y99.207 E0.01546
G1 X119.207 Y114.044 E0.54786
G1 X119.799 Y114.044 E0.01546
G1 X134.044 Y99.799 E0.52599
G1 X134.044 Y100.391 E0.01546
G1 X120.391 Y114.044 E0.50413
G1 X120.983 Y114.044 E0.01546
G1 X134.044 Y100.983 E0.48227
G1 X134.044 Y101.575 E0.01546
G1 X121.575 Y114.044 E0.46041
G1 X122.167 Y114.044 E0.01546
G1 X134.044 Y102.167 E0.43854
G1 X134.044 Y102.759 E0.01546
G1 X122.759 Y114.044 E0.41668
G1 X123.351 Y114.044 E0.01546
G1 X134.044 Y103.351 E0.39482
G1 X134.044 Y103.943 E0.01546
G1 X123.943 Y114.044 E0.37295
G1 X124.535 Y114.044 E0.01546
G1 X134.044 Y104.535 E0.35109
G1 X134.044 Y105.128 E0.01546
G1 X125.128 Y114.044 E0.32923
G1 X125.720 Y114.044 E0.01546
G1 X134.044 Y105.720 E0.30737
G1 X134.044 Y106.312 E0.01546
G1 X126.312 Y114.044 E0.28550
G1 X126.904 Y114.044 E0.01546
G1 X134.044 Y106.904 E0.26364
G1 X134.044 Y107.496 E0.01546
G1 X127.496 Y114.044 E0.24178
G1 X128.088 Y114.044 E0.01546
G1 X134.044 Y108.088 E0.21992
G1 X134.044 Y108.680 E0.01546
G1 X128.680 Y114.044 E0.19805
G1 X129.272 Y114.044 E0.01546
G1 X134.044 Y109.272 E0.17619
G1 X134.044 Y109.864 E0.01546
G1 X129.864 Y114.044 E0.15433
G1 X130.456 Y114.044 E0.01546
G1 X134.044 Y110.456 E0.13247
G1 X134.044 Y111.048 E0.01546
G1 X131.048 Y114.044 E0.11060
G1 X131.641 Y114.044 E0.01546
G1 X134.044 Y111.641 E0.08874
