; generated by PrusaSlicer 2.0.0+win64 on 2019-06-28 at 12:54:13

; 

; external perimeters extrusion width = 0.45mm
; perimeters extrusion width = 0.45mm
; infill extrusion width = 0.45mm
; solid infill extrusion width = 0.45mm
; top infill extrusion width = 0.40mm
; first layer extrusion width = 0.42mm

M73 P0 R90
M73 Q0 S91
M201 X1000 Y1000 Z1000 E5000 ; sets maximum accelerations, mm/sec^2
M203 X200 Y200 Z12 E120 ; sets maximum feedrates, mm/sec
M204 P1250 R1250 T1250 ; sets acceleration (P, T) and retract acceleration (R), mm/sec^2
M205 X8.00 Y8.00 Z0.40 E1.50 ; sets the jerk limits, mm/sec
M205 S0 T0 ; sets the minimum extruding and travel feed rate, mm/sec
M107
M115 U3.7.1 ; tell printer latest fw version
G90 ; use absolute coordinates
M83 ; extruder relative mode
M104 S215 ; set extruder temp
M140 S60 ; set bed temp
M190 S60 ; wait for bed temp
M109 S215 ; wait for extruder temp
G28 W ; home all without mesh bed level
G80 ; mesh bed leveling
G1 Y-3.0 F1000.0 ; go outside print area
G92 E0.0
G1 X60.0 E9.0 F1000.0 ; intro line
M73 Q0 S91
M73 P0 R90
G1 X100.0 E12.5 F1000.0 ; intro line
G92 E0.0
M221 S95
M900 K30 ; Filament gcode
G21 ; set units to millimeters
G90 ; use absolute coordinates
M83 ; use relative distances for extrusion
;BEFORE_LAYER_CHANGE
G92 E0.0
;0.2


G1 E-0.80000 F2100.00000
G1 Z0.600 F10800.000
;AFTER_LAYER_CHANGE
;0.2
G1 X90.011 Y59.223
G1 Z0.200
G1 E0.80000 F2100.00000
M204 S1000
G1 F1200
G1 X90.556 Y58.119 E0.03861
G1 X91.137 Y57.446 E0.02788
G1 X92.063 Y56.787 E0.03564
G1 X92.836 Y56.480 E0.02609
G1 X93.941 Y56.312 E0.03505
G1 X156.004 Y56.311 E1.94592
G1 X156.695 Y56.371 E0.02176
G1 X157.452 Y56.574 E0.02457
G1 X158.350 Y57.035 E0.03165
G1 X158.949 Y57.525 E0.02426
G1 X159.410 Y58.068 E0.02232
G1 X159.788 Y58.722 E0.02370
G1 X160.104 Y59.677 E0.03153
G1 X160.187 Y60.420 E0.02344
G1 X160.188 Y149.518 E2.79363
G1 X159.989 Y150.777 E0.03995
G1 X159.439 Y151.890 E0.03893
G1 X158.861 Y152.557 E0.02767
G1 X157.940 Y153.211 E0.03543
G1 X157.157 Y153.522 E0.02640
G1 X156.033 Y153.688 E0.03563
G1 X93.974 Y153.688 E1.94580
G1 X92.723 Y153.489 E0.03973
G1 X91.619 Y152.944 E0.03861
G1 X90.946 Y152.363 E0.02788
G1 X90.289 Y151.440 E0.03554
G1 X89.978 Y150.657 E0.02640
G1 X89.812 Y149.526 E0.03585
G1 X89.812 Y60.482 E2.79191
G1 X90.001 Y59.282 E0.03807
G1 F8640
G1 X90.556 Y58.119 E-0.29757
G1 X91.137 Y57.446 E-0.20534
G1 X92.044 Y56.800 E-0.25709
G1 E-0.04000 F2100.00000
G1 Z0.800 F10800.000
G1 X93.779 Y83.856
G1 Z0.200
G1 E0.80000 F2100.00000
G1 F1200
G1 X94.023 Y83.837 E0.00767
G1 X119.977 Y83.837 E0.81377
G1 X120.212 Y83.856 E0.00739
G1 X120.437 Y83.909 E0.00727
G1 X120.641 Y83.993 E0.00690
G1 X120.829 Y84.108 E0.00694
G1 X120.998 Y84.252 E0.00694
G1 X121.142 Y84.421 E0.00694
G1 X121.257 Y84.609 E0.00694
G1 X121.339 Y84.806 E0.00666
G1 X121.394 Y85.031 E0.00727
G1 X121.413 Y85.273 E0.00762
G1 X121.413 Y99.977 E0.46103
G1 X121.394 Y100.221 E0.00767
G1 X121.342 Y100.436 E0.00694
G1 X121.257 Y100.641 E0.00694
G1 X121.142 Y100.829 E0.00694
G1 X120.998 Y100.998 E0.00694
G1 X120.829 Y101.142 E0.00694
G1 X120.641 Y101.257 E0.00694
G1 X120.436 Y101.342 E0.00694
G1 X120.221 Y101.394 E0.00694
G1 X119.977 Y101.413 E0.00767
G1 X94.023 Y101.413 E0.81377
G1 X93.779 Y101.394 E0.00767
G1 X93.564 Y101.342 E0.00694
G1 X93.359 Y101.257 E0.00694
G1 X93.171 Y101.142 E0.00694
G1 X93.002 Y100.998 E0.00694
G1 X92.858 Y100.829 E0.00694
G1 X92.743 Y100.641 E0.00694
G1 X92.658 Y100.436 E0.00694
G1 X92.606 Y100.221 E0.00694
G1 X92.587 Y99.977 E0.00767
G1 X92.587 Y85.273 E0.46103
G1 X92.606 Y85.029 E0.00767
G1 X92.658 Y84.814 E0.00694
G1 X92.743 Y84.609 E0.00694
G1 X92.858 Y84.421 E0.00694
G1 X93.002 Y84.252 E0.00694
G1 X93.171 Y84.108 E0.00694
G1 X93.359 Y83.993 E0.00694
G1 X93.564 Y83.908 E0.00694
G1 X93.721 Y83.870 E0.00506
G1 X93.633 Y83.504 F10800.000
G1 F1200
G1 X94.008 Y83.460 E0.01185
G1 X119.992 Y83.460 E0.81469
G1 X120.270 Y83.482 E0.00875
G1 X120.553 Y83.548 E0.00913
G1 X120.812 Y83.656 E0.00879
G1 X121.052 Y83.802 E0.00880
G1 X121.265 Y83.985 E0.00880
G1 X121.448 Y84.198 E0.00880
G1 X121.594 Y84.438 E0.00880
G1 X121.698 Y84.688 E0.00849
G1 X121.767 Y84.971 E0.00913
G1 X121.790 Y85.258 E0.00905
G1 X121.790 Y99.992 E0.46196
G1 X121.767 Y100.280 E0.00906
G1 X121.702 Y100.553 E0.00880
G1 X121.594 Y100.812 E0.00880
G1 X121.448 Y101.052 E0.00880
G1 X121.265 Y101.265 E0.00880
G1 X121.052 Y101.448 E0.00880
G1 X120.812 Y101.594 E0.00880
G1 X120.553 Y101.702 E0.00880
G1 X120.280 Y101.767 E0.00880
G1 X119.992 Y101.790 E0.00906
G1 X94.008 Y101.790 E0.81469
G1 X93.720 Y101.767 E0.00906
G1 X93.447 Y101.702 E0.00880
G1 X93.188 Y101.594 E0.00880
G1 X92.948 Y101.448 E0.00880
G1 X92.735 Y101.265 E0.00880
G1 X92.552 Y101.052 E0.00880
G1 X92.406 Y100.812 E0.00880
G1 X92.298 Y100.553 E0.00880
G1 X92.233 Y100.280 E0.00880
G1 X92.210 Y99.992 E0.00906
G1 X92.210 Y85.258 E0.46196
G1 X92.233 Y84.970 E0.00906
G1 X92.298 Y84.697 E0.00880
G1 X92.406 Y84.438 E0.00880
G1 X92.552 Y84.198 E0.00880
G1 X92.735 Y83.985 E0.00880
G1 X92.948 Y83.802 E0.00880
G1 X93.188 Y83.656 E0.00880
G1 X93.447 Y83.548 E0.00880
G1 X93.575 Y83.518 E0.00411
G1 X93.879 Y83.790 F10800.000
G1 F8640
G1 X94.008 Y83.460 E-0.10102
G1 X96.862 Y83.460 E-0.65898
G1 E-0.04000 F2100.00000
G1 Z0.800 F10800.000
G1 X92.753 Y100.347
G1 Z0.200
G1 E0.80000 F2100.00000
G1 F1200
G1 X93.206 Y100.800 E0.02018
G1 X93.337 Y100.912 E0.00545
G1 X93.488 Y101.005 E0.00557
G1 X93.652 Y101.072 E0.00557
G1 X93.824 Y101.114 E0.00557
G1 X94.072 Y101.130 E0.00784
G1 X92.870 Y99.928 E0.05356
G1 X92.870 Y99.392 E0.01688
G1 X94.608 Y101.130 E0.07743
G1 X95.144 Y101.130 E0.01688
G1 X92.870 Y98.856 E0.10130
G1 X92.870 Y98.321 E0.01688
G1 X95.679 Y101.130 E0.12518
G1 X96.215 Y101.130 E0.01688
G1 X92.870 Y97.785 E0.14905
G1 X92.870 Y97.249 E0.01688
G1 X96.751 Y101.130 E0.17293
G1 X97.287 Y101.130 E0.01688
G1 X92.870 Y96.713 E0.19680
G1 X92.870 Y96.177 E0.01688
G1 X97.823 Y101.130 E0.22067
G1 X98.359 Y101.130 E0.01688
G1 X92.870 Y95.641 E0.24455
G1 X92.870 Y95.106 E0.01688
G1 X98.894 Y101.130 E0.26842
G1 X99.430 Y101.130 E0.01688
G1 X92.870 Y94.570 E0.29229
G1 X92.870 Y94.034 E0.01688
G1 X99.966 Y101.130 E0.31617
G1 X100.502 Y101.130 E0.01688
G1 X92.870 Y93.498 E0.34004
G1 X92.870 Y92.962 E0.01688
G1 X101.038 Y101.130 E0.36391
G1 X101.574 Y101.130 E0.01688
G1 X92.870 Y92.426 E0.38779
G1 X92.870 Y91.891 E0.01688
G1 X102.109 Y101.130 E0.41166
G1 X102.645 Y101.130 E0.01688
G1 X92.870 Y91.355 E0.43553
G1 X92.870 Y90.819 E0.01688
G1 X103.181 Y101.130 E0.45941
G1 X103.717 Y101.130 E0.01688
G1 X92.870 Y90.283 E0.48328
G1 X92.870 Y89.747 E0.01688
G1 X104.253 Y101.130 E0.50715
G1 X104.789 Y101.130 E0.01688
G1 X92.870 Y89.211 E0.53103
G1 X92.870 Y88.676 E0.01688
G1 X105.324 Y101.130 E0.55490
G1 X105.860 Y101.130 E0.01688
G1 X92.870 Y88.140 E0.57877
G1 X92.870 Y87.604 E0.01688
G1 X106.396 Y101.130 E0.60265
G1 X106.932 Y101.130 E0.01688
G1 X92.870 Y87.068 E0.62652
G1 X92.870 Y86.532 E0.01688
G1 X107.468 Y101.130 E0.65039
G1 X108.003 Y101.130 E0.01688
G1 X92.870 Y85.997 E0.67427
G1 X92.870 Y85.461 E0.01688
G1 X108.539 Y101.130 E0.69814
G1 X109.075 Y101.130 E0.01688
G1 X92.912 Y84.967 E0.72014
G1 X92.995 Y84.738 E0.00767
G1 X93.080 Y84.600 E0.00512
G1 X109.611 Y101.130 E0.73651
G1 X110.147 Y101.130 E0.01688
G1 X93.348 Y84.331 E0.74846
G1 X93.488 Y84.245 E0.00518
G1 X93.715 Y84.163 E0.00761
G1 X110.683 Y101.130 E0.75598
G1 X111.218 Y101.130 E0.01688
G1 X94.208 Y84.120 E0.75788
G1 X94.744 Y84.120 E0.01688
G1 X111.754 Y101.130 E0.75788
G1 X112.290 Y101.130 E0.01688
G1 X95.280 Y84.120 E0.75788
G1 X95.816 Y84.120 E0.01688
G1 X112.826 Y101.130 E0.75788
G1 X113.362 Y101.130 E0.01688
G1 X96.352 Y84.120 E0.75788
G1 X96.887 Y84.120 E0.01688
G1 X113.898 Y101.130 E0.75788
M73 Q1 S90
M73 P1 R89
G1 X114.433 Y101.130 E0.01688
G1 X97.423 Y84.120 E0.75788
G1 X97.959 Y84.120 E0.01688
G1 X114.969 Y101.130 E0.75788
G1 X115.505 Y101.130 E0.01688
G1 X98.495 Y84.120 E0.75788
G1 X99.031 Y84.120 E0.01688
G1 X116.041 Y101.130 E0.75788
G1 X116.577 Y101.130 E0.01688
G1 X99.566 Y84.120 E0.75788
G1 X100.102 Y84.120 E0.01688
G1 X117.113 Y101.130 E0.75788
G1 X117.648 Y101.130 E0.01688
G1 X100.638 Y84.120 E0.75788
G1 X101.174 Y84.120 E0.01688
G1 X118.184 Y101.130 E0.75788
G1 X118.720 Y101.130 E0.01688
G1 X101.710 Y84.120 E0.75788
G1 X102.246 Y84.120 E0.01688
G1 X119.256 Y101.130 E0.75788
G1 X119.792 Y101.130 E0.01688
G1 X102.781 Y84.120 E0.75788
G1 X103.317 Y84.120 E0.01688
G1 X120.285 Y101.088 E0.75598
G1 X120.512 Y101.005 E0.00761
G1 X120.652 Y100.919 E0.00518
G1 X103.853 Y84.120 E0.74846
G1 X104.389 Y84.120 E0.01688
G1 X120.920 Y100.651 E0.73651
G1 X121.005 Y100.512 E0.00512
G1 X121.088 Y100.283 E0.00767
G1 X104.925 Y84.120 E0.72014
G1 X105.461 Y84.120 E0.01688
G1 X121.130 Y99.789 E0.69815
G1 X121.130 Y99.254 E0.01688
G1 X105.996 Y84.120 E0.67427
G1 X106.532 Y84.120 E0.01688
G1 X121.130 Y98.718 E0.65040
G1 X121.130 Y98.182 E0.01688
G1 X107.068 Y84.120 E0.62653
G1 X107.604 Y84.120 E0.01688
G1 X121.130 Y97.646 E0.60265
G1 X121.130 Y97.110 E0.01688
G1 X108.140 Y84.120 E0.57878
G1 X108.676 Y84.120 E0.01688
G1 X121.130 Y96.574 E0.55491
G1 X121.130 Y96.039 E0.01688
G1 X109.211 Y84.120 E0.53103
G1 X109.747 Y84.120 E0.01688
G1 X121.130 Y95.503 E0.50716
G1 X121.130 Y94.967 E0.01688
G1 X110.283 Y84.120 E0.48328
G1 X110.819 Y84.120 E0.01688
G1 X121.130 Y94.431 E0.45941
G1 X121.130 Y93.895 E0.01688
G1 X111.355 Y84.120 E0.43554
G1 X111.891 Y84.120 E0.01688
G1 X121.130 Y93.359 E0.41166
G1 X121.130 Y92.824 E0.01688
G1 X112.426 Y84.120 E0.38779
G1 X112.962 Y84.120 E0.01688
G1 X121.130 Y92.288 E0.36392
G1 X121.130 Y91.752 E0.01688
G1 X113.498 Y84.120 E0.34004
G1 X114.034 Y84.120 E0.01688
G1 X121.130 Y91.216 E0.31617
G1 X121.130 Y90.680 E0.01688
G1 X114.570 Y84.120 E0.29230
G1 X115.106 Y84.120 E0.01688
G1 X121.130 Y90.144 E0.26842
G1 X121.130 Y89.609 E0.01688
G1 X115.641 Y84.120 E0.24455
G1 X116.177 Y84.120 E0.01688
G1 X121.130 Y89.073 E0.22068
G1 X121.130 Y88.537 E0.01688
G1 X116.713 Y84.120 E0.19680
G1 X117.249 Y84.120 E0.01688
G1 X121.130 Y88.001 E0.17293
G1 X121.130 Y87.465 E0.01688
G1 X117.785 Y84.120 E0.14906
G1 X118.320 Y84.120 E0.01688
G1 X121.130 Y86.930 E0.12518
G1 X121.130 Y86.394 E0.01688
G1 X118.856 Y84.120 E0.10131
G1 X119.392 Y84.120 E0.01688
G1 X121.130 Y85.858 E0.07744
G1 X121.130 Y85.322 E0.01688
G1 X119.928 Y84.120 E0.05356
G1 X120.168 Y84.136 E0.00758
G1 X120.350 Y84.179 E0.00590
G1 X120.512 Y84.245 E0.00550
G1 X120.663 Y84.338 E0.00557
G1 X120.794 Y84.450 E0.00542
G1 X121.246 Y84.902 E0.02014
G1 F8640
G1 X120.794 Y84.450 E-0.14764
G1 X120.663 Y84.338 E-0.03975
G1 X120.512 Y84.245 E-0.04085
G1 X120.350 Y84.179 E-0.04034
G1 X120.168 Y84.136 E-0.04324
G1 X119.928 Y84.120 E-0.05558
G1 X121.130 Y85.322 E-0.39257
G1 X121.130 Y85.322 E-0.00003
G1 E-0.04000 F2100.00000
G1 Z0.800 F10800.000
G1 X120.437 Y108.659
G1 Z0.200
G1 E0.80000 F2100.00000
G1 F1200
G1 X120.641 Y108.743 E0.00690
G1 X120.829 Y108.858 E0.00694
G1 X120.998 Y109.002 E0.00694
G1 X121.142 Y109.171 E0.00694
G1 X121.257 Y109.359 E0.00694
G1 X121.339 Y109.556 E0.00666
G1 X121.394 Y109.781 E0.00727
G1 X121.413 Y110.023 E0.00762
G1 X121.413 Y124.727 E0.46103
G1 X121.394 Y124.971 E0.00767
G1 X121.342 Y125.186 E0.00694
G1 X121.257 Y125.391 E0.00694
G1 X121.142 Y125.579 E0.00694
G1 X120.998 Y125.748 E0.00694
G1 X120.829 Y125.892 E0.00694
G1 X120.641 Y126.007 E0.00694
G1 X120.436 Y126.092 E0.00694
G1 X120.221 Y126.144 E0.00694
G1 X119.977 Y126.163 E0.00767
G1 X94.023 Y126.163 E0.81377
G1 X93.779 Y126.144 E0.00767
G1 X93.564 Y126.092 E0.00694
G1 X93.359 Y126.007 E0.00694
G1 X93.171 Y125.892 E0.00694
G1 X93.002 Y125.748 E0.00694
G1 X92.858 Y125.579 E0.00694
G1 X92.743 Y125.391 E0.00694
G1 X92.658 Y125.186 E0.00694
G1 X92.606 Y124.971 E0.00694
G1 X92.587 Y124.727 E0.00767
G1 X92.587 Y110.023 E0.46103
G1 X92.606 Y109.779 E0.00767
G1 X92.658 Y109.564 E0.00694
G1 X92.743 Y109.359 E0.00694
G1 X92.858 Y109.171 E0.00694
G1 X93.002 Y109.002 E0.00694
G1 X93.171 Y108.858 E0.00694
G1 X93.359 Y108.743 E0.00694
G1 X93.564 Y108.658 E0.00694
G1 X93.779 Y108.606 E0.00694
G1 X94.023 Y108.587 E0.00767
G1 X119.977 Y108.587 E0.81377
G1 X120.212 Y108.606 E0.00739
G1 X120.379 Y108.645 E0.00539
G1 X120.553 Y108.298 F10800.000
G1 F1200
G1 X120.812 Y108.406 E0.00879
G1 X121.052 Y108.552 E0.00880
G1 X121.265 Y108.735 E0.00880
G1 X121.448 Y108.948 E0.00880
G1 X121.594 Y109.188 E0.00880
G1 X121.698 Y109.438 E0.00849
G1 X121.767 Y109.721 E0.00913
G1 X121.790 Y110.008 E0.00905
G1 X121.790 Y124.742 E0.46196
G1 X121.767 Y125.030 E0.00906
G1 X121.702 Y125.303 E0.00880
G1 X121.594 Y125.562 E0.00880
G1 X121.448 Y125.802 E0.00880
G1 X121.265 Y126.015 E0.00880
G1 X121.052 Y126.198 E0.00880
G1 X120.812 Y126.344 E0.00880
G1 X120.553 Y126.452 E0.00880
G1 X120.280 Y126.517 E0.00880
G1 X119.992 Y126.540 E0.00906
G1 X94.008 Y126.540 E0.81469
G1 X93.720 Y126.517 E0.00906
G1 X93.447 Y126.452 E0.00880
G1 X93.188 Y126.344 E0.00880
G1 X92.948 Y126.198 E0.00880
G1 X92.735 Y126.015 E0.00880
G1 X92.552 Y125.802 E0.00880
G1 X92.406 Y125.562 E0.00880
G1 X92.298 Y125.303 E0.00880
G1 X92.233 Y125.030 E0.00880
G1 X92.210 Y124.742 E0.00906
G1 X92.210 Y110.008 E0.46196
G1 X92.233 Y109.720 E0.00906
G1 X92.298 Y109.447 E0.00880
G1 X92.406 Y109.188 E0.00880
G1 X92.552 Y108.948 E0.00880
G1 X92.735 Y108.735 E0.00880
G1 X92.948 Y108.552 E0.00880
G1 X93.188 Y108.406 E0.00880
G1 X93.447 Y108.298 E0.00880
G1 X93.720 Y108.233 E0.00880
G1 X94.008 Y108.210 E0.00906
G1 X119.992 Y108.210 E0.81469
G1 X120.270 Y108.232 E0.00875
G1 X120.495 Y108.285 E0.00725
G1 X120.612 Y108.573 F10800.000
G1 F8640
G1 X120.812 Y108.406 E-0.07841
G1 X121.052 Y108.552 E-0.06483
G1 X121.265 Y108.735 E-0.06483
G1 X121.448 Y108.948 E-0.06483
G1 X121.594 Y109.188 E-0.06483
G1 X121.698 Y109.438 E-0.06254
G1 X121.767 Y109.721 E-0.06722
G1 X121.790 Y110.008 E-0.06662
G1 X121.790 Y110.986 E-0.22587
G1 E-0.04000 F2100.00000
G1 Z0.800 F10800.000
G1 X121.246 Y109.652
G1 Z0.200
G1 E0.80000 F2100.00000
G1 F1200
G1 X120.794 Y109.200 E0.02014
G1 X120.663 Y109.088 E0.00542
G1 X120.512 Y108.995 E0.00557
G1 X120.350 Y108.929 E0.00550
G1 X120.168 Y108.886 E0.00590
G1 X119.928 Y108.870 E0.00758
G1 X121.130 Y110.072 E0.05356
G1 X121.130 Y110.608 E0.01688
G1 X119.392 Y108.870 E0.07744
G1 X118.856 Y108.870 E0.01688
G1 X121.130 Y111.144 E0.10131
G1 X121.130 Y111.680 E0.01688
G1 X118.320 Y108.870 E0.12518
G1 X117.785 Y108.870 E0.01688
G1 X121.130 Y112.215 E0.14906
G1 X121.130 Y112.751 E0.01688
G1 X117.249 Y108.870 E0.17293
G1 X116.713 Y108.870 E0.01688
G1 X121.130 Y113.287 E0.19680
G1 X121.130 Y113.823 E0.01688
G1 X116.177 Y108.870 E0.22068
G1 X115.641 Y108.870 E0.01688
G1 X121.130 Y114.359 E0.24455
G1 X121.130 Y114.894 E0.01688
G1 X115.106 Y108.870 E0.26842
G1 X114.570 Y108.870 E0.01688
G1 X121.130 Y115.430 E0.29230
G1 X121.130 Y115.966 E0.01688
G1 X114.034 Y108.870 E0.31617
G1 X113.498 Y108.870 E0.01688
G1 X121.130 Y116.502 E0.34004
G1 X121.130 Y117.038 E0.01688
G1 X112.962 Y108.870 E0.36392
G1 X112.426 Y108.870 E0.01688
G1 X121.130 Y117.574 E0.38779
G1 X121.130 Y118.109 E0.01688
G1 X111.891 Y108.870 E0.41166
G1 X111.355 Y108.870 E0.01688
G1 X121.130 Y118.645 E0.43554
G1 X121.130 Y119.181 E0.01688
G1 X110.819 Y108.870 E0.45941
G1 X110.283 Y108.870 E0.01688
G1 X121.130 Y119.717 E0.48328
G1 X121.130 Y120.253 E0.01688
G1 X109.747 Y108.870 E0.50716
G1 X109.211 Y108.870 E0.01688
G1 X121.130 Y120.789 E0.53103
G1 X121.130 Y121.324 E0.01688
G1 X108.676 Y108.870 E0.55491
G1 X108.140 Y108.870 E0.01688
G1 X121.130 Y121.860 E0.57878
G1 X121.130 Y122.396 E0.01688
G1 X107.604 Y108.870 E0.60265
M73 Q2 S89
G1 X107.068 Y108.870 E0.01688
M73 P2 R88
G1 X121.130 Y122.932 E0.62653
G1 X121.130 Y123.468 E0.01688
G1 X106.532 Y108.870 E0.65040
G1 X105.996 Y108.870 E0.01688
G1 X121.130 Y124.004 E0.67427
G1 X121.130 Y124.539 E0.01688
G1 X105.461 Y108.870 E0.69815
G1 X104.925 Y108.870 E0.01688
G1 X121.088 Y125.033 E0.72014
G1 X121.005 Y125.262 E0.00767
G1 X120.920 Y125.401 E0.00512
G1 X104.389 Y108.870 E0.73651
G1 X103.853 Y108.870 E0.01688
G1 X120.652 Y125.669 E0.74846
G1 X120.512 Y125.755 E0.00518
