; generated by PrusaSlicer 2.0.0+win64 on 2019-06-28 at 17:02:49

; 

; external perimeters extrusion width = 0.45mm
; perimeters extrusion width = 0.45mm
; infill extrusion width = 0.45mm
; solid infill extrusion width = 0.45mm
; top infill extrusion width = 0.40mm
; first layer extrusion width = 0.42mm

M73 P0 R122
M73 Q0 S123
M201 X1000 Y1000 Z1000 E5000 ; sets maximum accelerations, mm/sec^2
M203 X200 Y200 Z12 E120 ; sets maximum feedrates, mm/sec
M204 P1250 R1250 T1250 ; sets acceleration (P, T) and retract acceleration (R), mm/sec^2
M205 X8.00 Y8.00 Z0.40 E1.50 ; sets the jerk limits, mm/sec
M205 S0 T0 ; sets the minimum extruding and travel feed rate, mm/sec
M107
M115 U3.7.1 ; tell printer latest fw version
G90 ; use absolute coordinates
M83 ; extruder relative mode
M104 S215 ; set extruder temp
M140 S60 ; set bed temp
M190 S60 ; wait for bed temp
M109 S215 ; wait for extruder temp
G28 W ; home all without mesh bed level
G80 ; mesh bed leveling
G1 Y-3.0 F1000.0 ; go outside print area
G92 E0.0
G1 X60.0 E9.0 F1000.0 ; intro line
M73 Q0 S123
M73 P0 R122
G1 X100.0 E12.5 F1000.0 ; intro line
G92 E0.0
M221 S95
M900 K30 ; Filament gcode
G21 ; set units to millimeters
G90 ; use absolute coordinates
M83 ; use relative distances for extrusion
;BEFORE_LAYER_CHANGE
G92 E0.0
;0.2


G1 E-0.80000 F2100.00000
G1 Z0.600 F10800.000
;AFTER_LAYER_CHANGE
;0.2
G1 X81.123 Y59.489
G1 Z0.200
G1 E0.80000 F2100.00000
M204 S1000
G1 F1200
G1 X81.969 Y59.312 E0.02709
G1 X168.016 Y59.311 E2.69795
G1 X168.555 Y59.380 E0.01703
G1 X169.064 Y59.580 E0.01714
G1 X169.504 Y59.898 E0.01703
G1 X169.855 Y60.318 E0.01714
G1 X177.143 Y72.938 E0.45692
G1 X177.343 Y73.431 E0.01669
G1 X177.418 Y73.962 E0.01680
G1 X177.406 Y136.226 E1.95227
G1 X177.133 Y137.080 E0.02810
G1 X169.904 Y149.601 E0.45331
G1 X169.588 Y150.019 E0.01646
G1 X168.867 Y150.515 E0.02743
G1 X168.013 Y150.689 E0.02733
G1 X81.973 Y150.688 E2.69772
G1 X81.161 Y150.526 E0.02597
G1 X80.467 Y150.074 E0.02597
G1 X80.098 Y149.604 E0.01873
G1 X72.861 Y137.069 E0.45383
G1 X72.654 Y136.555 E0.01737
G1 X72.582 Y136.002 E0.01749
G1 X72.594 Y73.774 E1.95112
G1 X72.867 Y72.920 E0.02810
G1 X80.098 Y60.396 E0.45342
G1 X80.412 Y59.981 E0.01635
G1 X81.074 Y59.523 E0.02521
G1 F8640
G1 X81.969 Y59.312 E-0.21237
G1 X84.341 Y59.312 E-0.54763
G1 E-0.04000 F2100.00000
G1 Z0.800 F10800.000
G1 X118.122 Y93.087
G1 Z0.200
G1 E0.80000 F2100.00000
G1 F1200
G1 X131.878 Y93.087 E0.43131
G1 X138.745 Y104.981 E0.43062
G1 X138.756 Y105.000 E0.00069
G1 X131.878 Y116.913 E0.43131
G1 X118.122 Y116.913 E0.43131
G1 X111.244 Y105.000 E0.43131
G1 X118.092 Y93.139 E0.42942
G1 X117.904 Y92.710 F10800.000
G1 F1200
G1 X132.096 Y92.710 E0.44496
G1 X139.071 Y104.793 E0.43744
G1 X139.191 Y105.000 E0.00751
G1 X132.096 Y117.290 E0.44496
G1 X117.904 Y117.290 E0.44496
G1 X110.809 Y105.000 E0.44496
G1 X117.874 Y92.762 E0.44308
G1 X118.251 Y92.910 F10800.000
G1 F8640
G1 X121.166 Y92.750 E-0.76000
G1 E-0.04000 F2100.00000
G1 Z0.800 F10800.000
G1 X111.417 Y104.926
G1 Z0.200
G1 E0.80000 F2100.00000
G1 F1200
G1 X123.121 Y116.630 E0.52586
G1 X123.662 Y116.630 E0.01717
G1 X111.739 Y104.708 E0.53567
G1 X111.937 Y104.365 E0.01257
G1 X124.202 Y116.630 E0.55107
G1 X124.742 Y116.630 E0.01717
G1 X112.135 Y104.023 E0.56646
G1 X112.333 Y103.680 E0.01257
G1 X125.283 Y116.630 E0.58185
G1 X125.823 Y116.630 E0.01717
G1 X112.530 Y103.338 E0.59724
G1 X112.728 Y102.995 E0.01257
G1 X126.363 Y116.630 E0.61263
G1 X126.904 Y116.630 E0.01717
G1 X112.926 Y102.652 E0.62802
G1 X113.124 Y102.310 E0.01257
G1 X127.444 Y116.630 E0.64342
G1 X127.984 Y116.630 E0.01717
G1 X113.322 Y101.967 E0.65881
G1 X113.519 Y101.625 E0.01257
G1 X128.525 Y116.630 E0.67420
G1 X129.065 Y116.630 E0.01717
G1 X113.717 Y101.282 E0.68959
G1 X113.915 Y100.940 E0.01257
G1 X129.606 Y116.630 E0.70498
G1 X130.146 Y116.630 E0.01717
G1 X114.113 Y100.597 E0.72038
G1 X114.311 Y100.254 E0.01257
G1 X130.686 Y116.630 E0.73577
G1 X131.227 Y116.630 E0.01717
G1 X114.508 Y99.912 E0.75116
G1 X114.706 Y99.569 E0.01257
G1 X131.734 Y116.597 E0.76506
G1 X131.932 Y116.254 E0.01257
G1 X114.904 Y99.227 E0.76506
G1 X115.102 Y98.884 E0.01257
G1 X132.129 Y115.912 E0.76506
G1 X132.327 Y115.569 E0.01257
G1 X115.299 Y98.542 E0.76506
G1 X115.497 Y98.199 E0.01257
G1 X132.525 Y115.227 E0.76506
G1 X132.723 Y114.884 E0.01257
G1 X115.695 Y97.856 E0.76506
G1 X115.893 Y97.514 E0.01257
G1 X132.920 Y114.542 E0.76506
G1 X133.118 Y114.199 E0.01257
G1 X116.091 Y97.171 E0.76506
G1 X116.288 Y96.829 E0.01257
G1 X133.316 Y113.856 E0.76506
G1 X133.514 Y113.514 E0.01257
G1 X116.486 Y96.486 E0.76506
M73 Q0 S122
M73 P0 R121
G1 X116.684 Y96.144 E0.01257
G1 X133.712 Y113.171 E0.76506
G1 X133.909 Y112.829 E0.01257
G1 X116.882 Y95.801 E0.76506
G1 X117.079 Y95.458 E0.01257
G1 X134.107 Y112.486 E0.76506
G1 X134.305 Y112.144 E0.01257
G1 X117.277 Y95.116 E0.76506
G1 X117.475 Y94.773 E0.01257
G1 X134.503 Y111.801 E0.76506
G1 X134.701 Y111.458 E0.01257
G1 X117.673 Y94.431 E0.76506
G1 X117.871 Y94.088 E0.01257
G1 X134.898 Y111.116 E0.76506
G1 X135.096 Y110.773 E0.01257
G1 X118.068 Y93.746 E0.76506
G1 X118.266 Y93.403 E0.01257
G1 X135.294 Y110.431 E0.76506
G1 X135.492 Y110.088 E0.01257
G1 X118.773 Y93.370 E0.75116
G1 X119.314 Y93.370 E0.01717
G1 X135.689 Y109.746 E0.73577
G1 X135.887 Y109.403 E0.01257
G1 X119.854 Y93.370 E0.72038
G1 X120.394 Y93.370 E0.01717
G1 X136.085 Y109.060 E0.70499
G1 X136.283 Y108.718 E0.01257
G1 X120.935 Y93.370 E0.68960
G1 X121.475 Y93.370 E0.01717
G1 X136.481 Y108.375 E0.67420
G1 X136.678 Y108.033 E0.01257
G1 X122.015 Y93.370 E0.65881
G1 X122.556 Y93.370 E0.01717
G1 X136.876 Y107.690 E0.64342
G1 X137.074 Y107.348 E0.01257
G1 X123.096 Y93.370 E0.62803
G1 X123.637 Y93.370 E0.01717
G1 X137.272 Y107.005 E0.61264
G1 X137.469 Y106.662 E0.01257
G1 X124.177 Y93.370 E0.59724
G1 X124.717 Y93.370 E0.01717
G1 X137.667 Y106.320 E0.58185
G1 X137.865 Y105.977 E0.01257
G1 X125.258 Y93.370 E0.56646
G1 X125.798 Y93.370 E0.01717
G1 X138.063 Y105.635 E0.55107
G1 X138.261 Y105.292 E0.01257
G1 X126.338 Y93.370 E0.53568
G1 X126.879 Y93.370 E0.01717
G1 X138.583 Y105.074 E0.52587
G1 F8640
G1 X136.255 Y102.746 E-0.76000
G1 E-0.04000 F2100.00000
G1 Z0.800 F10800.000
G1 X138.046 Y103.997
G1 Z0.200
G1 E0.80000 F2100.00000
G1 F1200
G1 X127.419 Y93.370 E0.47749
G1 X127.959 Y93.370 E0.01717
G1 X137.308 Y102.719 E0.42005
G1 F8640
G1 X134.981 Y100.391 E-0.76000
G1 E-0.04000 F2100.00000
G1 Z0.800 F10800.000
G1 X136.570 Y101.440
G1 Z0.200
G1 E0.80000 F2100.00000
G1 F1200
G1 X128.500 Y93.370 E0.36260
G1 X129.040 Y93.370 E0.01717
G1 X135.832 Y100.162 E0.30516
G1 F8640
G1 X133.504 Y97.834 E-0.76000
G1 E-0.04000 F2100.00000
G1 Z0.800 F10800.000
G1 X135.094 Y98.883
G1 Z0.200
G1 E0.80000 F2100.00000
G1 F1200
G1 X129.580 Y93.370 E0.24772
G1 X130.121 Y93.370 E0.01717
G1 X134.356 Y97.605 E0.19027
G1 F8640
G1 X132.028 Y95.277 E-0.76000
G1 E-0.04000 F2100.00000
G1 Z0.800 F10800.000
G1 X133.617 Y96.326
G1 Z0.200
G1 E0.80000 F2100.00000
G1 F1200
G1 X130.661 Y93.370 E0.13283
G1 X131.201 Y93.370 E0.01717
G1 X132.879 Y95.048 E0.07539
G1 F8640
G1 X131.201 Y93.370 E-0.54790
G1 X130.661 Y93.370 E-0.12477
G1 X130.929 Y93.637 E-0.08733
G1 E-0.04000 F2100.00000
G1 Z0.800 F10800.000
G1 X112.692 Y107.282
G1 Z0.200
G1 E0.80000 F2100.00000
G1 F1200
G1 X122.210 Y116.800 E0.42766
G1 X122.751 Y116.800 F10800.000
G1 F1200
G1 X111.954 Y106.003 E0.48510
G1 F8640
G1 X114.281 Y108.330 E-0.76000
G1 E-0.04000 F2100.00000
G1 Z0.800 F10800.000
G1 X113.430 Y108.560
G1 Z0.200
G1 E0.80000 F2100.00000
G1 F1200
G1 X121.670 Y116.800 E0.37022
G1 X121.130 Y116.800 F10800.000
G1 F1200
G1 X114.168 Y109.839 E0.31277
G1 F8640
G1 X116.496 Y112.166 E-0.76000
G1 E-0.04000 F2100.00000
G1 Z0.800 F10800.000
G1 X114.906 Y111.117
G1 Z0.200
G1 E0.80000 F2100.00000
G1 F1200
G1 X120.589 Y116.800 E0.25533
G1 X120.049 Y116.800 F10800.000
G1 F1200
G1 X115.645 Y112.396 E0.19789
G1 F8640
G1 X117.972 Y114.723 E-0.76000
G1 E-0.04000 F2100.00000
G1 Z0.800 F10800.000
G1 X116.383 Y113.674
G1 Z0.200
G1 E0.80000 F2100.00000
G1 F1200
G1 X119.508 Y116.800 E0.14044
G1 X118.968 Y116.800 F10800.000
G1 F1200
G1 X117.121 Y114.953 E0.08300
G1 F8640
G1 X118.968 Y116.800 E-0.60323
G1 E-0.19677 F2100.00000
G1 Z0.800 F10800.000
G1 X118.122 Y124.087
G1 Z0.200
G1 E0.80000 F2100.00000
G1 F1200
G1 X131.878 Y124.087 E0.43131
G1 X138.745 Y135.981 E0.43062
G1 X138.756 Y136.000 E0.00069
G1 X131.878 Y147.913 E0.43131
G1 X118.122 Y147.913 E0.43131
G1 X111.244 Y136.000 E0.43131
G1 X118.092 Y124.139 E0.42942
G1 X117.904 Y123.710 F10800.000
G1 F1200
G1 X132.096 Y123.710 E0.44496
G1 X139.071 Y135.792 E0.43744
G1 X139.191 Y136.000 E0.00751
G1 X132.096 Y148.290 E0.44496
G1 X117.904 Y148.290 E0.44496
G1 X110.809 Y136.000 E0.44496
G1 X117.874 Y123.762 E0.44308
G1 X118.251 Y123.910 F10800.000
G1 F8640
G1 X121.166 Y123.750 E-0.76000
G1 E-0.04000 F2100.00000
G1 Z0.800 F10800.000
G1 X111.417 Y135.926
G1 Z0.200
G1 E0.80000 F2100.00000
G1 F1200
G1 X123.121 Y147.630 E0.52586
G1 X123.662 Y147.630 E0.01717
G1 X111.739 Y135.708 E0.53567
G1 X111.937 Y135.365 E0.01257
G1 X124.202 Y147.630 E0.55107
G1 X124.742 Y147.630 E0.01717
G1 X112.135 Y135.023 E0.56646
G1 X112.333 Y134.680 E0.01257
G1 X125.283 Y147.630 E0.58185
G1 X125.823 Y147.630 E0.01717
G1 X112.530 Y134.338 E0.59724
G1 X112.728 Y133.995 E0.01257
G1 X126.363 Y147.630 E0.61263
G1 X126.904 Y147.630 E0.01717
G1 X112.926 Y133.652 E0.62802
G1 X113.124 Y133.310 E0.01257
G1 X127.444 Y147.630 E0.64342
G1 X127.984 Y147.630 E0.01717
G1 X113.322 Y132.967 E0.65881
G1 X113.519 Y132.625 E0.01257
G1 X128.525 Y147.630 E0.67420
G1 X129.065 Y147.630 E0.01717
G1 X113.717 Y132.282 E0.68959
G1 X113.915 Y131.940 E0.01257
G1 X129.606 Y147.630 E0.70498
M73 Q1 S121
M73 P1 R120
G1 X130.146 Y147.630 E0.01717
G1 X114.113 Y131.597 E0.72038
G1 X114.311 Y131.254 E0.01257
G1 X130.686 Y147.630 E0.73577
G1 X131.227 Y147.630 E0.01717
G1 X114.508 Y130.912 E0.75116
G1 X114.706 Y130.569 E0.01257
G1 X131.734 Y147.597 E0.76506
G1 X131.932 Y147.254 E0.01257
G1 X114.904 Y130.227 E0.76506
G1 X115.102 Y129.884 E0.01257
G1 X132.129 Y146.912 E0.76506
G1 X132.327 Y146.569 E0.01257
G1 X115.299 Y129.542 E0.76506
G1 X115.497 Y129.199 E0.01257
G1 X132.525 Y146.227 E0.76506
G1 X132.723 Y145.884 E0.01257
G1 X115.695 Y128.856 E0.76506
G1 X115.893 Y128.514 E0.01257
G1 X132.920 Y145.542 E0.76506
G1 X133.118 Y145.199 E0.01257
G1 X116.091 Y128.171 E0.76506
G1 X116.288 Y127.829 E0.01257
G1 X133.316 Y144.856 E0.76506
G1 X133.514 Y144.514 E0.01257
G1 X116.486 Y127.486 E0.76506
G1 X116.684 Y127.144 E0.01257
G1 X133.712 Y144.171 E0.76506
G1 X133.909 Y143.829 E0.01257
G1 X116.882 Y126.801 E0.76506
G1 X117.079 Y126.458 E0.01257
G1 X134.107 Y143.486 E0.76506
G1 X134.305 Y143.144 E0.01257
G1 X117.277 Y126.116 E0.76506
G1 X117.475 Y125.773 E0.01257
G1 X134.503 Y142.801 E0.76506
G1 X134.701 Y142.458 E0.01257
G1 X117.673 Y125.431 E0.76506
G1 X117.871 Y125.088 E0.01257
G1 X134.898 Y142.116 E0.76506
G1 X135.096 Y141.773 E0.01257
G1 X118.068 Y124.746 E0.76506
G1 X118.266 Y124.403 E0.01257
G1 X135.294 Y141.431 E0.76506
G1 X135.492 Y141.088 E0.01257
G1 X118.773 Y124.370 E0.75116
G1 X119.314 Y124.370 E0.01717
G1 X135.689 Y140.746 E0.73577
G1 X135.887 Y140.403 E0.01257
G1 X119.854 Y124.370 E0.72038
G1 X120.394 Y124.370 E0.01717
G1 X136.085 Y140.060 E0.70499
G1 X136.283 Y139.718 E0.01257
G1 X120.935 Y124.370 E0.68960
G1 X121.475 Y124.370 E0.01717
G1 X136.481 Y139.375 E0.67420
G1 X136.678 Y139.033 E0.01257
G1 X122.015 Y124.370 E0.65881
G1 X122.556 Y124.370 E0.01717
G1 X136.876 Y138.690 E0.64342
G1 X137.074 Y138.348 E0.01257
G1 X123.096 Y124.370 E0.62803
G1 X123.637 Y124.370 E0.01717
G1 X137.272 Y138.005 E0.61264
G1 X137.469 Y137.662 E0.01257
G1 X124.177 Y124.370 E0.59724
G1 X124.717 Y124.370 E0.01717
G1 X137.667 Y137.320 E0.58185
G1 X137.865 Y136.977 E0.01257
G1 X125.258 Y124.370 E0.56646
G1 X125.798 Y124.370 E0.01717
G1 X138.063 Y136.635 E0.55107
G1 X138.261 Y136.292 E0.01257
G1 X126.338 Y124.370 E0.53568
G1 X126.879 Y124.370 E0.01717
G1 X138.583 Y136.074 E0.52587
G1 F8640
G1 X136.255 Y133.746 E-0.76000
G1 E-0.04000 F2100.00000
G1 Z0.800 F10800.000
G1 X138.046 Y134.997
G1 Z0.200
G1 E0.80000 F2100.00000
G1 F1200
G1 X127.419 Y124.370 E0.47749
G1 X127.959 Y124.370 E0.01717
G1 X137.308 Y133.719 E0.42005
G1 F8640
G1 X134.981 Y131.391 E-0.76000
G1 E-0.04000 F2100.00000
G1 Z0.800 F10800.000
G1 X136.570 Y132.440
G1 Z0.200
G1 E0.80000 F2100.00000
G1 F1200
G1 X128.500 Y124.370 E0.36260
G1 X129.040 Y124.370 E0.01717
G1 X135.832 Y131.162 E0.30516
G1 F8640
G1 X133.504 Y128.834 E-0.76000
G1 E-0.04000 F2100.00000
G1 Z0.800 F10800.000
G1 X135.094 Y129.883
G1 Z0.200
G1 E0.80000 F2100.00000
G1 F1200
G1 X129.580 Y124.370 E0.24772
G1 X130.121 Y124.370 E0.01717
G1 X134.356 Y128.605 E0.19027
G1 F8640
G1 X132.028 Y126.277 E-0.76000
G1 E-0.04000 F2100.00000
G1 Z0.800 F10800.000
G1 X133.617 Y127.326
G1 Z0.200
G1 E0.80000 F2100.00000
G1 F1200
G1 X130.661 Y124.370 E0.13283
G1 X131.201 Y124.370 E0.01717
G1 X132.879 Y126.048 E0.07539
G1 F8640
G1 X131.201 Y124.370 E-0.54790
G1 X130.661 Y124.370 E-0.12477
G1 X130.929 Y124.637 E-0.08733
G1 E-0.04000 F2100.00000
G1 Z0.800 F10800.000
G1 X112.692 Y138.282
G1 Z0.200
G1 E0.80000 F2100.00000
G1 F1200
G1 X122.210 Y147.800 E0.42766
G1 X122.751 Y147.800 F10800.000
G1 F1200
G1 X111.954 Y137.003 E0.48510
G1 F8640
G1 X114.281 Y139.330 E-0.76000
G1 E-0.04000 F2100.00000
G1 Z0.800 F10800.000
G1 X113.430 Y139.560
G1 Z0.200
G1 E0.80000 F2100.00000
G1 F1200
G1 X121.670 Y147.800 E0.37022
G1 X121.130 Y147.800 F10800.000
G1 F1200
G1 X114.168 Y140.839 E0.31277
G1 F8640
G1 X116.496 Y143.166 E-0.76000
G1 E-0.04000 F2100.00000
G1 Z0.800 F10800.000
G1 X114.906 Y142.117
G1 Z0.200
G1 E0.80000 F2100.00000
G1 F1200
G1 X120.589 Y147.800 E0.25533
G1 X120.049 Y147.800 F10800.000
G1 F1200
G1 X115.645 Y143.396 E0.19789
G1 F8640
G1 X117.972 Y145.723 E-0.76000
G1 E-0.04000 F2100.00000
G1 Z0.800 F10800.000
G1 X116.383 Y144.674
G1 Z0.200
G1 E0.80000 F2100.00000
G1 F1200
G1 X119.508 Y147.800 E0.14044
G1 X118.968 Y147.800 F10800.000
G1 F1200
G1 X117.121 Y145.953 E0.08300
G1 F8640
G1 X118.968 Y147.800 E-0.60323
G1 E-0.19677 F2100.00000
G1 Z0.800 F10800.000
G1 X96.082 Y116.913
G1 Z0.200
G1 E0.80000 F2100.00000
G1 F1200
G1 X82.326 Y116.913 E0.43131
G1 X75.448 Y105.000 E0.43131
G1 X82.326 Y93.087 E0.43131
G1 X96.082 Y93.087 E0.43131
G1 X102.960 Y105.000 E0.43131
G1 X96.112 Y116.861 E0.42942
G1 X96.300 Y117.290 F10800.000
G1 F1200
G1 X82.109 Y117.290 E0.44496
G1 X75.013 Y105.000 E0.44496
M73 Q2 S120
M73 P2 R119
G1 X82.109 Y92.710 E0.44496
G1 X96.300 Y92.710 E0.44496
G1 X103.396 Y105.000 E0.44496
G1 X96.330 Y117.238 E0.44308
G1 X95.954 Y117.090 F10800.000
G1 F8640
G1 X93.039 Y117.250 E-0.76000
G1 E-0.04000 F2100.00000
G1 Z0.800 F10800.000
G1 X86.955 Y116.800
G1 Z0.200
G1 E0.80000 F2100.00000
G1 F1200
G1 X76.158 Y106.003 E0.48510
G1 F8640
G1 X78.486 Y108.330 E-0.76000
G1 E-0.04000 F2100.00000
G1 Z0.800 F10800.000
G1 X75.622 Y104.926
G1 Z0.200
G1 E0.80000 F2100.00000
G1 F1200
G1 X87.326 Y116.630 E0.52586
G1 X87.866 Y116.630 E0.01717
G1 X75.944 Y104.708 E0.53567
G1 X76.141 Y104.365 E0.01257
G1 X88.406 Y116.630 E0.55107
G1 X88.947 Y116.630 E0.01717
G1 X76.339 Y104.023 E0.56646
G1 X76.537 Y103.680 E0.01257
G1 X89.487 Y116.630 E0.58185
G1 X90.027 Y116.630 E0.01717
G1 X76.735 Y103.338 E0.59724
G1 X76.933 Y102.995 E0.01257
G1 X90.568 Y116.630 E0.61263
G1 X91.108 Y116.630 E0.01717
G1 X77.130 Y102.652 E0.62802
G1 X77.328 Y102.310 E0.01257
G1 X91.648 Y116.630 E0.64342
G1 X92.189 Y116.630 E0.01717
G1 X77.526 Y101.967 E0.65881
G1 X77.724 Y101.625 E0.01257
G1 X92.729 Y116.630 E0.67420
G1 X93.269 Y116.630 E0.01717
G1 X77.921 Y101.282 E0.68959
G1 X78.119 Y100.940 E0.01257
G1 X93.810 Y116.630 E0.70498
G1 X94.350 Y116.630 E0.01717
G1 X78.317 Y100.597 E0.72038
G1 X78.515 Y100.254 E0.01257
G1 X94.890 Y116.630 E0.73577
G1 X95.431 Y116.630 E0.01717
G1 X78.713 Y99.912 E0.75116
G1 X78.910 Y99.569 E0.01257
G1 X95.938 Y116.597 E0.76506
G1 X96.136 Y116.254 E0.01257
G1 X79.108 Y99.227 E0.76506
G1 X79.306 Y98.884 E0.01257
G1 X96.334 Y115.912 E0.76506
G1 X96.531 Y115.569 E0.01257
G1 X79.504 Y98.542 E0.76506
