; generated by PrusaSlicer 2.0.0+win64 on 2019-09-19 at 16:40:17

; 

; external perimeters extrusion width = 0.45mm
; perimeters extrusion width = 0.45mm
; infill extrusion width = 0.45mm
; solid infill extrusion width = 0.45mm
; top infill extrusion width = 0.40mm
; first layer extrusion width = 0.42mm

M73 P0 R107
M73 Q0 S107
M201 X1000 Y1000 Z1000 E5000 ; sets maximum accelerations, mm/sec^2
M203 X200 Y200 Z12 E120 ; sets maximum feedrates, mm/sec
M204 P1250 R1250 T1250 ; sets acceleration (P, T) and retract acceleration (R), mm/sec^2
M205 X8.00 Y8.00 Z0.40 E1.50 ; sets the jerk limits, mm/sec
M205 S0 T0 ; sets the minimum extruding and travel feed rate, mm/sec
M107
M115 U3.8.0 ; tell printer latest fw version
G90 ; use absolute coordinates
M83 ; extruder relative mode
M104 S215 ; set extruder temp
M140 S60 ; set bed temp
M190 S60 ; wait for bed temp
M109 S215 ; wait for extruder temp
G28 W ; home all without mesh bed level
G80 ; mesh bed leveling
G1 Y-3.0 F1000.0 ; go outside print area
G92 E0.0
G1 X60.0 E9.0 F1000.0 ; intro line
M73 Q0 S107
M73 P0 R107
G1 X100.0 E12.5 F1000.0 ; intro line
G92 E0.0
M221 S95
M900 K30 ; Filament gcode
G21 ; set units to millimeters
G90 ; use absolute coordinates
M83 ; use relative distances for extrusion
;BEFORE_LAYER_CHANGE
G92 E0.0
;0.2


G1 E-0.80000 F2100.00000
G1 Z0.600 F10800.000
;AFTER_LAYER_CHANGE
;0.2
G1 X114.774 Y88.568
G1 Z0.200
G1 E0.80000 F2100.00000
M204 S1000
G1 F1200
G1 X115.286 Y88.179 E0.02017
G1 X115.883 Y87.928 E0.02029
G1 X116.523 Y87.835 E0.02029
G1 X133.433 Y87.834 E0.53020
G1 X134.094 Y87.922 E0.02091
G1 X134.711 Y88.177 E0.02091
G1 X135.240 Y88.582 E0.02091
G1 X135.647 Y89.111 E0.02091
G1 X144.157 Y103.860 E0.53392
G1 X144.361 Y104.433 E0.01906
G1 X144.424 Y105.038 E0.01906
G1 X144.344 Y105.636 E0.01894
G1 X144.125 Y106.203 E0.01906
G1 X135.625 Y120.927 E0.53305
G1 X135.200 Y121.456 E0.02128
G1 X134.655 Y121.854 E0.02116
G1 X134.063 Y122.086 E0.01992
G1 X133.429 Y122.166 E0.02004
G1 X116.527 Y122.165 E0.52996
G1 X115.929 Y122.084 E0.01894
G1 X115.369 Y121.867 E0.01882
G1 X114.811 Y121.467 E0.02152
G1 X114.377 Y120.930 E0.02165
G1 X105.870 Y106.193 E0.53355
G1 X105.650 Y105.613 E0.01943
G1 X105.576 Y104.994 E0.01956
G1 X105.653 Y104.375 E0.01956
G1 X105.875 Y103.797 E0.01943
G1 X114.373 Y89.076 E0.53293
G1 X114.737 Y88.615 E0.01841
G1 X115.030 Y88.846 F10800.000
G1 F1200
G1 X115.475 Y88.506 E0.01755
G1 X115.986 Y88.291 E0.01737
G1 X116.534 Y88.212 E0.01737
G1 X133.433 Y88.211 E0.52986
G1 X134.000 Y88.287 E0.01794
G1 X134.525 Y88.506 E0.01783
G1 X134.976 Y88.852 E0.01783
G1 X135.323 Y89.302 E0.01783
G1 X143.811 Y104.012 E0.53249
G1 X143.991 Y104.505 E0.01646
G1 X144.047 Y105.027 E0.01646
G1 X143.978 Y105.548 E0.01646
G1 X143.786 Y106.037 E0.01646
G1 X135.304 Y120.729 E0.53192
G1 X134.945 Y121.179 E0.01805
G1 X134.481 Y121.519 E0.01805
G1 X133.972 Y121.720 E0.01714
G1 X133.429 Y121.789 E0.01715
G1 X116.538 Y121.788 E0.52962
G1 X116.021 Y121.718 E0.01635
G1 X115.536 Y121.528 E0.01635
G1 X115.061 Y121.184 E0.01839
G1 X114.696 Y120.729 E0.01828
G1 X106.209 Y106.027 E0.53227
G1 X106.017 Y105.527 E0.01680
G1 X105.953 Y104.995 E0.01680
G1 X106.020 Y104.463 E0.01680
G1 X106.214 Y103.963 E0.01680
G1 X114.694 Y89.274 E0.53181
G1 X114.993 Y88.893 E0.01519
G1 F8640
G1 X115.475 Y88.506 E-0.14273
G1 X115.986 Y88.291 E-0.12793
G1 X116.534 Y88.212 E-0.12793
G1 X118.099 Y88.212 E-0.36141
G1 E-0.04000 F2100.00000
G1 Z0.800 F10800.000
G1 X120.273 Y96.813
G1 Z0.200
G1 E0.80000 F2100.00000
G1 F1200
G1 X129.727 Y96.813 E0.29641
G1 X134.454 Y105.000 E0.29641
G1 X129.727 Y113.187 E0.29641
G1 X120.273 Y113.187 E0.29641
G1 X115.546 Y105.000 E0.29641
G1 X120.243 Y96.865 E0.29453
G1 X120.491 Y97.190 F10800.000
G1 F1200
G1 X129.509 Y97.190 E0.28276
G1 X134.018 Y105.000 E0.28276
G1 X129.509 Y112.810 E0.28276
G1 X120.491 Y112.810 E0.28276
G1 X115.982 Y105.000 E0.28276
G1 X120.461 Y97.242 E0.28088
G1 X120.491 Y96.790 F10800.000
G1 F8640
G1 X123.752 Y97.223 E-0.76000
G1 E-0.04000 F2100.00000
G1 Z0.800 F10800.000
G1 X116.910 Y90.987
G1 Z0.200
G1 E0.80000 F2100.00000
G1 F1200
G1 X133.090 Y90.987 E0.50734
G1 X141.181 Y105.000 E0.50734
G1 X133.090 Y119.013 E0.50734
G1 X116.910 Y119.013 E0.50734
G1 X108.819 Y105.000 E0.50734
G1 X116.880 Y91.039 E0.50545
G1 X116.692 Y90.610 F10800.000
G1 F1200
G1 X133.308 Y90.610 E0.52099
G1 X141.616 Y105.000 E0.52099
G1 X133.308 Y119.390 E0.52099
G1 X116.692 Y119.390 E0.52099
G1 X108.384 Y105.000 E0.52099
G1 X116.662 Y90.662 E0.51911
G1 X117.038 Y90.810 F10800.000
G1 F8640
G1 X119.953 Y90.652 E-0.76000
G1 E-0.04000 F2100.00000
G1 Z0.800 F10800.000
G1 X129.284 Y96.700
G1 Z0.200
G1 E0.80000 F2100.00000
G1 F1200
G1 X123.854 Y91.270 E0.24177
G1 X123.318 Y91.270 E0.01686
G1 X128.578 Y96.530 E0.23421
G1 X128.043 Y96.530 E0.01686
G1 X122.783 Y91.270 E0.23421
G1 X122.247 Y91.270 E0.01686
G1 X127.507 Y96.530 E0.23421
G1 X126.972 Y96.530 E0.01686
G1 X121.712 Y91.270 E0.23421
G1 X121.176 Y91.270 E0.01686
G1 X126.436 Y96.530 E0.23421
G1 X125.901 Y96.530 E0.01686
G1 X120.641 Y91.270 E0.23421
G1 X120.105 Y91.270 E0.01686
G1 X125.365 Y96.530 E0.23421
G1 X124.830 Y96.530 E0.01686
G1 X119.570 Y91.270 E0.23421
G1 X119.034 Y91.270 E0.01686
G1 X124.295 Y96.530 E0.23421
G1 X123.759 Y96.530 E0.01686
G1 X118.499 Y91.270 E0.23421
G1 X117.963 Y91.270 E0.01686
G1 X123.224 Y96.530 E0.23421
G1 X122.688 Y96.530 E0.01686
G1 X117.428 Y91.270 E0.23421
G1 X117.073 Y91.270 E0.01117
G1 X117.007 Y91.384 E0.00416
G1 X122.153 Y96.530 E0.22912
G1 X121.617 Y96.530 E0.01686
G1 X116.811 Y91.724 E0.21400
G1 X116.615 Y92.063 E0.01234
G1 X121.082 Y96.530 E0.19889
G1 X120.546 Y96.530 E0.01686
G1 X116.419 Y92.403 E0.18377
G1 X116.223 Y92.742 E0.01234
G1 X120.074 Y96.593 E0.17146
G1 X119.878 Y96.933 E0.01234
G1 X116.027 Y93.082 E0.17146
G1 X115.831 Y93.421 E0.01234
G1 X119.682 Y97.272 E0.17146
G1 X119.486 Y97.611 E0.01234
G1 X115.635 Y93.761 E0.17146
G1 X115.439 Y94.100 E0.01234
G1 X119.290 Y97.951 E0.17146
G1 X119.094 Y98.290 E0.01234
G1 X115.243 Y94.440 E0.17146
G1 X115.047 Y94.779 E0.01234
G1 X118.898 Y98.630 E0.17146
G1 X118.702 Y98.969 E0.01234
G1 X114.851 Y95.119 E0.17146
G1 X114.655 Y95.458 E0.01234
G1 X118.506 Y99.309 E0.17146
G1 X118.310 Y99.648 E0.01234
G1 X114.459 Y95.798 E0.17146
G1 X114.263 Y96.137 E0.01234
G1 X118.114 Y99.988 E0.17146
G1 X117.918 Y100.327 E0.01234
G1 X114.067 Y96.477 E0.17146
G1 X113.871 Y96.816 E0.01234
G1 X117.722 Y100.667 E0.17146
G1 X117.526 Y101.006 E0.01234
G1 X113.675 Y97.155 E0.17146
G1 X113.479 Y97.495 E0.01234
G1 X117.330 Y101.346 E0.17146
G1 X117.134 Y101.685 E0.01234
G1 X113.283 Y97.834 E0.17146
G1 X113.087 Y98.174 E0.01234
G1 X116.938 Y102.025 E0.17146
G1 X116.742 Y102.364 E0.01234
G1 X112.891 Y98.513 E0.17146
G1 X112.695 Y98.853 E0.01234
G1 X116.546 Y102.704 E0.17146
G1 X116.350 Y103.043 E0.01234
G1 X112.499 Y99.192 E0.17146
G1 X112.303 Y99.532 E0.01234
G1 X116.154 Y103.383 E0.17146
G1 X115.958 Y103.722 E0.01234
G1 X112.107 Y99.871 E0.17146
G1 X111.911 Y100.211 E0.01234
G1 X115.762 Y104.062 E0.17146
G1 X115.566 Y104.401 E0.01234
G1 X111.715 Y100.550 E0.17146
G1 X111.519 Y100.890 E0.01234
G1 X115.370 Y104.741 E0.17146
G1 X115.220 Y105.000 E0.00943
G1 X115.392 Y105.299 E0.01086
G1 X111.323 Y101.229 E0.18119
G1 X111.127 Y101.569 E0.01234
G1 X116.587 Y107.029 E0.24313
G1 F8640
G1 X114.260 Y104.702 E-0.76000
G1 E-0.04000 F2100.00000
G1 Z0.800 F10800.000
G1 X117.319 Y108.296
G1 Z0.200
G1 E0.80000 F2100.00000
G1 F1200
G1 X110.931 Y101.908 E0.28442
G1 X110.735 Y102.248 E0.01234
G1 X118.050 Y109.563 E0.32572
G1 F8640
G1 X115.723 Y107.236 E-0.76000
G1 E-0.04000 F2100.00000
G1 Z0.800 F10800.000
G1 X118.782 Y110.830
G1 Z0.200
G1 E0.80000 F2100.00000
G1 F1200
G1 X110.539 Y102.587 E0.36702
G1 X110.343 Y102.927 E0.01234
G1 X119.513 Y112.097 E0.40831
G1 F8640
G1 X117.186 Y109.770 E-0.76000
G1 E-0.04000 F2100.00000
G1 Z0.800 F10800.000
G1 X120.716 Y113.300
G1 Z0.200
G1 E0.80000 F2100.00000
G1 F1200
G1 X126.146 Y118.730 E0.24177
G1 X126.682 Y118.730 E0.01686
G1 X121.422 Y113.470 E0.23421
G1 X121.957 Y113.470 E0.01686
G1 X127.217 Y118.730 E0.23421
G1 X127.753 Y118.730 E0.01686
G1 X122.493 Y113.470 E0.23421
G1 X123.028 Y113.470 E0.01686
G1 X128.288 Y118.730 E0.23421
G1 X128.824 Y118.730 E0.01686
G1 X123.563 Y113.470 E0.23421
G1 X124.099 Y113.470 E0.01686
G1 X129.359 Y118.730 E0.23421
G1 X129.895 Y118.730 E0.01686
G1 X124.634 Y113.470 E0.23421
G1 X125.170 Y113.470 E0.01686
G1 X130.430 Y118.730 E0.23421
G1 X130.966 Y118.730 E0.01686
G1 X125.705 Y113.470 E0.23421
G1 X126.241 Y113.470 E0.01686
G1 X131.501 Y118.730 E0.23421
G1 X132.037 Y118.730 E0.01686
G1 X126.776 Y113.470 E0.23421
G1 X127.312 Y113.470 E0.01686
G1 X132.572 Y118.730 E0.23421
G1 X132.927 Y118.730 E0.01118
G1 X132.993 Y118.616 E0.00416
G1 X127.847 Y113.470 E0.22912
G1 X128.383 Y113.470 E0.01686
G1 X133.189 Y118.276 E0.21400
G1 X133.385 Y117.937 E0.01234
G1 X128.918 Y113.470 E0.19889
G1 X129.454 Y113.470 E0.01686
G1 X133.581 Y117.597 E0.18377
G1 X133.777 Y117.258 E0.01234
G1 X129.926 Y113.407 E0.17146
G1 X130.122 Y113.068 E0.01234
G1 X133.973 Y116.918 E0.17146
G1 X134.169 Y116.579 E0.01234
G1 X130.318 Y112.728 E0.17146
G1 X130.514 Y112.389 E0.01234
G1 X134.365 Y116.239 E0.17146
G1 X134.561 Y115.900 E0.01234
G1 X130.710 Y112.049 E0.17146
G1 X130.906 Y111.710 E0.01234
G1 X134.757 Y115.560 E0.17146
G1 X134.953 Y115.221 E0.01234
G1 X131.102 Y111.370 E0.17146
G1 X131.298 Y111.031 E0.01234
G1 X135.149 Y114.881 E0.17146
M73 Q0 S106
G1 X135.345 Y114.542 E0.01234
G1 X131.494 Y110.691 E0.17146
M73 P0 R106
G1 X131.690 Y110.352 E0.01234
G1 X135.541 Y114.202 E0.17146
G1 X135.737 Y113.863 E0.01234
G1 X131.886 Y110.012 E0.17146
G1 X132.082 Y109.673 E0.01234
G1 X135.933 Y113.524 E0.17146
G1 X136.129 Y113.184 E0.01234
G1 X132.278 Y109.333 E0.17146
G1 X132.474 Y108.994 E0.01234
G1 X136.325 Y112.845 E0.17146
G1 X136.521 Y112.505 E0.01234
G1 X132.670 Y108.654 E0.17146
G1 X132.866 Y108.315 E0.01234
G1 X136.717 Y112.166 E0.17146
G1 X136.913 Y111.826 E0.01234
G1 X133.062 Y107.975 E0.17146
G1 X133.258 Y107.636 E0.01234
G1 X137.109 Y111.487 E0.17146
G1 X137.305 Y111.147 E0.01234
G1 X133.454 Y107.296 E0.17146
G1 X133.650 Y106.957 E0.01234
G1 X137.501 Y110.808 E0.17146
G1 X137.697 Y110.468 E0.01234
G1 X133.846 Y106.617 E0.17146
G1 X134.042 Y106.278 E0.01234
G1 X137.893 Y110.129 E0.17146
G1 X138.089 Y109.789 E0.01234
G1 X134.238 Y105.938 E0.17146
G1 X134.434 Y105.599 E0.01234
G1 X138.285 Y109.450 E0.17146
G1 X138.481 Y109.110 E0.01234
G1 X134.630 Y105.260 E0.17146
G1 X134.780 Y105.000 E0.00943
G1 X134.608 Y104.702 E0.01085
G1 X138.801 Y108.895 E0.18672
G1 X138.997 Y108.556 F10800.000
G1 F1200
G1 X133.413 Y102.971 E0.24865
G1 F8640
G1 X135.740 Y105.298 E-0.76000
G1 E-0.04000 F2100.00000
G1 Z0.800 F10800.000
G1 X132.681 Y101.704
G1 Z0.200
G1 E0.80000 F2100.00000
G1 F1200
G1 X139.193 Y108.216 E0.28995
G1 X139.389 Y107.877 F10800.000
G1 F1200
G1 X131.950 Y100.437 E0.33125
G1 F8640
G1 X134.277 Y102.764 E-0.76000
G1 E-0.04000 F2100.00000
G1 Z0.800 F10800.000
G1 X131.218 Y99.170
G1 Z0.200
G1 E0.80000 F2100.00000
G1 F1200
G1 X139.585 Y107.537 E0.37254
G1 F8640
G1 X137.258 Y105.210 E-0.76000
G1 E-0.04000 F2100.00000
G1 Z0.800 F10800.000
G1 X140.957 Y105.161
G1 Z0.200
G1 E0.80000 F2100.00000
G1 F1200
G1 X127.066 Y91.270 E0.61849
G1 X126.531 Y91.270 E0.01686
G1 X140.637 Y105.376 E0.62808
G1 X140.441 Y105.715 E0.01234
G1 X125.995 Y91.270 E0.64319
G1 X125.460 Y91.270 E0.01686
G1 X140.245 Y106.055 E0.65831
G1 X140.049 Y106.394 E0.01234
G1 X124.925 Y91.270 E0.67343
G1 X124.389 Y91.270 E0.01686
G1 X139.853 Y106.734 E0.68854
G1 X139.657 Y107.073 E0.01234
G1 X130.487 Y97.903 E0.40831
G1 F8640
G1 X132.814 Y100.231 E-0.76000
G1 E-0.04000 F2100.00000
G1 Z0.800 F10800.000
G1 X135.545 Y95.464
G1 Z0.200
G1 E0.80000 F2100.00000
G1 F1200
G1 X131.350 Y91.270 E0.18676
G1 X130.815 Y91.270 E0.01686
G1 X136.276 Y96.731 E0.24317
G1 F8640
G1 X133.949 Y94.404 E-0.76000
G1 E-0.04000 F2100.00000
G1 Z0.800 F10800.000
G1 X137.008 Y97.998
G1 Z0.200
G1 E0.80000 F2100.00000
G1 F1200
G1 X130.279 Y91.270 E0.29958
G1 X129.744 Y91.270 E0.01686
G1 X137.739 Y99.265 E0.35599
G1 F8640
G1 X135.412 Y96.938 E-0.76000
G1 E-0.04000 F2100.00000
G1 Z0.800 F10800.000
G1 X138.471 Y100.532
G1 Z0.200
G1 E0.80000 F2100.00000
G1 F1200
G1 X129.208 Y91.270 E0.41240
G1 X128.673 Y91.270 E0.01686
G1 X139.202 Y101.799 E0.46882
G1 F8640
G1 X136.875 Y99.472 E-0.76000
G1 E-0.04000 F2100.00000
G1 Z0.800 F10800.000
G1 X139.934 Y103.066
G1 Z0.200
G1 E0.80000 F2100.00000
G1 F1200
G1 X128.137 Y91.270 E0.52523
G1 X127.602 Y91.270 E0.01686
G1 X140.665 Y104.333 E0.58164
G1 F8640
G1 X138.338 Y102.006 E-0.76000
G1 E-0.04000 F2100.00000
G1 Z0.800 F10800.000
G1 X134.813 Y94.197
G1 Z0.200
G1 E0.80000 F2100.00000
G1 F1200
G1 X131.886 Y91.270 E0.13035
G1 X132.421 Y91.270 E0.01686
G1 X134.082 Y92.930 E0.07394
G1 F8640
G1 X132.421 Y91.270 E-0.54225
G1 X131.886 Y91.270 E-0.12364
G1 X132.174 Y91.558 E-0.09411
G1 E-0.04000 F2100.00000
G1 Z0.800 F10800.000
G1 X125.781 Y118.900
G1 Z0.200
G1 E0.80000 F2100.00000
G1 F1200
G1 X110.147 Y103.266 E0.69609
G1 X109.951 Y103.606 E0.01234
G1 X125.075 Y118.730 E0.67342
G1 X124.540 Y118.730 E0.01686
G1 X109.755 Y103.945 E0.65831
G1 X109.559 Y104.285 E0.01234
G1 X124.004 Y118.730 E0.64319
G1 X123.469 Y118.730 E0.01686
G1 X109.363 Y104.624 E0.62808
G1 X109.167 Y104.964 E0.01234
G1 X122.933 Y118.730 E0.61296
G1 X122.398 Y118.730 E0.01686
G1 X109.335 Y105.667 E0.58163
G1 F8640
G1 X111.662 Y107.995 E-0.76000
G1 E-0.04000 F2100.00000
G1 Z0.800 F10800.000
G1 X110.067 Y106.934
G1 Z0.200
G1 E0.80000 F2100.00000
G1 F1200
G1 X122.032 Y118.900 E0.53277
G1 X121.497 Y118.900 F10800.000
G1 F1200
G1 X110.798 Y108.201 E0.47636
G1 F8640
G1 X113.125 Y110.528 E-0.76000
G1 E-0.04000 F2100.00000
G1 Z0.800 F10800.000
G1 X111.529 Y109.468
G1 Z0.200
G1 E0.80000 F2100.00000
G1 F1200
G1 X120.961 Y118.900 E0.41995
G1 X120.426 Y118.900 F10800.000
G1 F1200
G1 X112.261 Y110.735 E0.36354
G1 F8640
G1 X114.588 Y113.062 E-0.76000
G1 E-0.04000 F2100.00000
G1 Z0.800 F10800.000
G1 X112.992 Y112.002
G1 Z0.200
G1 E0.80000 F2100.00000
G1 F1200
G1 X119.890 Y118.900 E0.30713
G1 X119.355 Y118.900 F10800.000
G1 F1200
G1 X113.724 Y113.269 E0.25072
G1 F8640
G1 X116.051 Y115.596 E-0.76000
G1 E-0.04000 F2100.00000
G1 Z0.800 F10800.000
G1 X114.455 Y114.536
G1 Z0.200
G1 E0.80000 F2100.00000
G1 F1200
G1 X118.819 Y118.900 E0.19431
G1 X118.284 Y118.900 F10800.000
G1 F1200
G1 X115.187 Y115.803 E0.13789
G1 F8640
G1 X117.514 Y118.130 E-0.76000
G1 E-0.04000 F2100.00000
G1 Z0.800 F10800.000
G1 X115.918 Y117.070
G1 Z0.200
G1 E0.80000 F2100.00000
G1 F1200
G1 X117.748 Y118.900 E0.08148
M106 S255
;BEFORE_LAYER_CHANGE
G92 E0.0
;0.4


G1 F8640
G1 X115.918 Y117.070 E-0.59760
G1 E-0.20240 F2100.00000
G1 Z0.800 F10800.000
;AFTER_LAYER_CHANGE
;0.4
G1 X114.811 Y121.467
G1 Z0.400
G1 E0.80000 F2100.00000
G1 F3000
G1 X114.377 Y120.930 E0.02165
G1 X105.870 Y106.193 E0.53355
G1 X105.650 Y105.613 E0.01943
G1 X105.576 Y104.994 E0.01956
G1 X105.653 Y104.375 E0.01956
G1 X105.875 Y103.797 E0.01943
G1 X114.373 Y89.076 E0.53293
G1 X114.774 Y88.568 E0.02029
G1 X115.286 Y88.179 E0.02017
G1 X115.883 Y87.928 E0.02029
G1 X116.523 Y87.835 E0.02029
G1 X133.433 Y87.834 E0.53020
G1 X134.094 Y87.922 E0.02091
G1 X134.711 Y88.177 E0.02091
G1 X135.240 Y88.582 E0.02091
G1 X135.647 Y89.111 E0.02091
G1 X144.157 Y103.860 E0.53392
G1 X144.361 Y104.433 E0.01906
G1 X144.424 Y105.038 E0.01906
G1 X144.344 Y105.636 E0.01894
G1 X144.125 Y106.203 E0.01906
G1 X135.625 Y120.927 E0.53305
G1 X135.200 Y121.456 E0.02128
G1 X134.655 Y121.854 E0.02116
G1 X134.063 Y122.086 E0.01992
G1 X133.429 Y122.166 E0.02004
G1 X116.527 Y122.165 E0.52996
G1 X115.929 Y122.084 E0.01894
G1 X115.369 Y121.867 E0.01882
G1 X114.860 Y121.502 E0.01964
G1 F8640
G1 X114.377 Y120.930 E-0.17281
G1 X113.106 Y118.728 E-0.58719
G1 E-0.04000 F2100.00000
G1 Z1.000 F10800.000
G1 X120.247 Y113.232
G1 Z0.400
G1 E0.80000 F2100.00000
M204 S800
G1 F2700
G1 X115.494 Y105.000 E0.32175
G1 X120.247 Y96.768 E0.32175
G1 X129.753 Y96.768 E0.32175
G1 X134.506 Y105.000 E0.32175
G1 X129.753 Y113.232 E0.32175
G1 X120.307 Y113.232 E0.31972
