; generated by PrusaSlicer 2.0.0+win64 on 2019-06-27 at 14:42:48

; 

; external perimeters extrusion width = 0.45mm
; perimeters extrusion width = 0.45mm
; infill extrusion width = 0.45mm
; solid infill extrusion width = 0.45mm
; top infill extrusion width = 0.40mm
; first layer extrusion width = 0.42mm

M73 P0 R15
M73 Q0 S15
M201 X1000 Y1000 Z1000 E5000 ; sets maximum accelerations, mm/sec^2
M203 X200 Y200 Z12 E120 ; sets maximum feedrates, mm/sec
M204 P1250 R1250 T1250 ; sets acceleration (P, T) and retract acceleration (R), mm/sec^2
M205 X8.00 Y8.00 Z0.40 E1.50 ; sets the jerk limits, mm/sec
M205 S0 T0 ; sets the minimum extruding and travel feed rate, mm/sec
M107
M115 U3.7.1 ; tell printer latest fw version
G90 ; use absolute coordinates
M83 ; extruder relative mode
M104 S215 ; set extruder temp
M140 S60 ; set bed temp
M190 S60 ; wait for bed temp
M109 S215 ; wait for extruder temp
G28 W ; home all without mesh bed level
G80 ; mesh bed leveling
G1 Y-3.0 F1000.0 ; go outside print area
G92 E0.0
G1 X60.0 E9.0 F1000.0 ; intro line
M73 Q0 S15
M73 P0 R15
G1 X100.0 E12.5 F1000.0 ; intro line
G92 E0.0
M221 S95
M900 K30 ; Filament gcode
G21 ; set units to millimeters
G90 ; use absolute coordinates
M83 ; use relative distances for extrusion
;BEFORE_LAYER_CHANGE
G92 E0.0
;0.2


G1 E-0.80000 F2100.00000
G1 Z0.600 F10800.000
;AFTER_LAYER_CHANGE
;0.2
G1 X115.902 Y90.917
G1 Z0.200
G1 E0.80000 F2100.00000
M204 S1000
G1 F1200
G1 X116.624 Y90.388 E0.02807
G1 X117.384 Y90.071 E0.02580
G1 X118.280 Y89.936 E0.02840
G1 X131.643 Y89.934 E0.41901
G1 X132.624 Y90.074 E0.03106
G1 X133.481 Y90.449 E0.02935
G1 X134.143 Y90.962 E0.02624
G1 X134.719 Y91.702 E0.02938
G1 X141.545 Y103.573 E0.42938
G1 X141.775 Y104.304 E0.02403
G1 X141.840 Y105.161 E0.02694
G1 X141.732 Y105.888 E0.02304
G1 X141.441 Y106.644 E0.02541
G1 X134.678 Y118.364 E0.42427
G1 X134.067 Y119.111 E0.03027
G1 X133.273 Y119.669 E0.03042
G1 X132.547 Y119.946 E0.02437
G1 X131.647 Y120.065 E0.02848
G1 X118.297 Y120.065 E0.41856
G1 X117.460 Y119.949 E0.02650
G1 X116.780 Y119.696 E0.02276
G1 X115.952 Y119.129 E0.03144
G1 X115.323 Y118.366 E0.03103
G1 X108.563 Y106.654 E0.42398
G1 X108.249 Y105.812 E0.02818
G1 X108.158 Y104.930 E0.02780
G1 X108.259 Y104.147 E0.02476
G1 X108.559 Y103.356 E0.02652
G1 X115.315 Y91.646 E0.42390
G1 X115.865 Y90.964 E0.02745
G1 X116.156 Y91.198 F10800.000
G1 F1200
G1 X116.814 Y90.714 E0.02562
G1 X117.488 Y90.434 E0.02289
G1 X118.295 Y90.313 E0.02560
G1 X131.643 Y90.311 E0.41851
G1 X132.524 Y90.437 E0.02789
G1 X133.295 Y90.777 E0.02642
G1 X133.877 Y91.230 E0.02312
G1 X134.396 Y91.897 E0.02651
G1 X141.194 Y103.712 E0.42741
G1 X141.404 Y104.370 E0.02166
G1 X141.464 Y105.149 E0.02448
G1 X141.366 Y105.795 E0.02050
G1 X141.099 Y106.486 E0.02322
G1 X134.363 Y118.157 E0.42251
G1 X133.816 Y118.830 E0.02718
G1 X133.104 Y119.332 E0.02733
G1 X132.456 Y119.580 E0.02176
G1 X131.646 Y119.688 E0.02563
G1 X118.309 Y119.688 E0.41815
G1 X117.547 Y119.582 E0.02414
G1 X116.937 Y119.353 E0.02042
G1 X116.202 Y118.846 E0.02799
G1 X115.640 Y118.162 E0.02774
G1 X108.904 Y106.491 E0.42252
G1 X108.617 Y105.730 E0.02552
G1 X108.535 Y104.928 E0.02527
G1 X108.627 Y104.233 E0.02198
G1 X108.901 Y103.514 E0.02413
G1 X115.633 Y91.849 E0.42228
G1 X116.118 Y91.245 E0.02430
G1 F8640
G1 X116.814 Y90.714 E-0.20206
G1 X117.488 Y90.434 E-0.16856
G1 X118.295 Y90.313 E-0.18850
G1 X119.165 Y90.313 E-0.20088
G1 E-0.04000 F2100.00000
G1 Z0.800 F10800.000
G1 X118.084 Y93.202
G1 Z0.200
G1 E0.80000 F2100.00000
G1 F1200
G1 X118.184 Y93.134 E0.00380
G1 X118.382 Y93.087 E0.00638
G1 X131.720 Y93.098 E0.41818
G1 X131.869 Y93.164 E0.00512
G1 X132.009 Y93.313 E0.00641
G1 X138.615 Y104.756 E0.41426
G1 X138.686 Y104.948 E0.00644
G1 X138.675 Y105.090 E0.00446
G1 X138.615 Y105.245 E0.00519
G1 X132.019 Y116.668 E0.41360
G1 X131.916 Y116.798 E0.00519
G1 X131.816 Y116.866 E0.00381
G1 X131.616 Y116.913 E0.00641
G1 X118.404 Y116.913 E0.41425
G1 X118.203 Y116.879 E0.00642
G1 X118.084 Y116.798 E0.00450
G1 X117.981 Y116.668 E0.00519
G1 X111.385 Y105.244 E0.41361
G1 X111.314 Y105.052 E0.00644
G1 X111.325 Y104.910 E0.00446
G1 X111.385 Y104.755 E0.00519
G1 X117.981 Y93.332 E0.41360
G1 X118.047 Y93.249 E0.00331
G1 X117.752 Y93.014 F10800.000
G1 F1200
G1 X117.825 Y92.923 E0.00366
G1 X118.019 Y92.790 E0.00736
G1 X118.251 Y92.719 E0.00761
G1 X118.368 Y92.710 E0.00370
G1 X131.761 Y92.721 E0.41994
G1 X131.865 Y92.744 E0.00332
G1 X132.083 Y92.849 E0.00760
G1 X132.259 Y93.012 E0.00751
G1 X132.328 Y93.112 E0.00381
G1 X138.955 Y104.591 E0.41561
G1 X139.049 Y104.829 E0.00801
G1 X139.065 Y104.934 E0.00332
G1 X139.047 Y105.175 E0.00760
G1 X138.955 Y105.409 E0.00786
G1 X132.332 Y116.881 E0.41537
G1 X132.175 Y117.077 E0.00786
G1 X131.981 Y117.210 E0.00736
G1 X131.752 Y117.280 E0.00751
G1 X131.631 Y117.290 E0.00381
G1 X118.376 Y117.290 E0.41560
G1 X118.120 Y117.251 E0.00811
G1 X118.025 Y117.214 E0.00320
G1 X117.825 Y117.077 E0.00761
G1 X117.668 Y116.881 E0.00786
G1 X111.045 Y105.409 E0.41537
G1 X110.951 Y105.171 E0.00801
G1 X110.935 Y105.066 E0.00332
G1 X110.953 Y104.825 E0.00760
G1 X111.045 Y104.591 E0.00786
G1 X117.714 Y93.061 E0.41766
G1 X117.868 Y93.026 F10800.000
G1 F8640
G1 X117.825 Y92.923 E-0.04083
G1 X118.019 Y92.790 E-0.05421
G1 X118.251 Y92.719 E-0.05606
G1 X118.368 Y92.710 E-0.02721
G1 X120.887 Y92.712 E-0.58169
G1 E-0.04000 F2100.00000
G1 Z0.800 F10800.000
G1 X111.890 Y105.893
G1 Z0.200
G1 E0.80000 F2100.00000
G1 F1200
G1 X122.627 Y116.630 E0.48068
G1 X123.166 Y116.630 E0.01704
G1 X111.632 Y105.096 E0.51634
G1 X111.604 Y104.973 E0.00400
G1 X111.755 Y104.681 E0.01042
G1 X123.704 Y116.630 E0.53494
G1 X124.243 Y116.630 E0.01704
G1 X111.952 Y104.339 E0.55022
G1 X112.149 Y103.998 E0.01248
G1 X124.781 Y116.630 E0.56550
G1 X125.319 Y116.630 E0.01704
G1 X112.346 Y103.657 E0.58078
G1 X112.543 Y103.316 E0.01248
G1 X125.858 Y116.630 E0.59606
G1 X126.396 Y116.630 E0.01704
G1 X112.740 Y102.974 E0.61134
G1 X112.937 Y102.633 E0.01248
G1 X126.935 Y116.630 E0.62662
G1 X127.473 Y116.630 E0.01704
G1 X113.134 Y102.292 E0.64190
G1 X113.331 Y101.950 E0.01248
G1 X128.011 Y116.630 E0.65718
G1 X128.550 Y116.630 E0.01704
G1 X113.529 Y101.609 E0.67246
G1 X113.726 Y101.268 E0.01248
G1 X129.088 Y116.630 E0.68774
G1 X129.627 Y116.630 E0.01704
G1 X113.923 Y100.926 E0.70303
G1 X114.120 Y100.585 E0.01248
G1 X130.165 Y116.630 E0.71831
G1 X130.703 Y116.630 E0.01704
G1 X114.317 Y100.244 E0.73359
G1 X114.514 Y99.902 E0.01248
G1 X131.242 Y116.630 E0.74887
G1 X131.584 Y116.630 E0.01083
G1 X131.700 Y116.603 E0.00377
G1 X131.729 Y116.579 E0.00120
G1 X114.711 Y99.561 E0.76185
G1 X114.908 Y99.220 E0.01248
G1 X131.936 Y116.247 E0.76229
G1 X132.133 Y115.906 E0.01248
G1 X115.105 Y98.878 E0.76229
G1 X115.302 Y98.537 E0.01248
G1 X132.330 Y115.565 E0.76229
G1 X132.527 Y115.223 E0.01248
G1 X115.499 Y98.196 E0.76229
G1 X115.696 Y97.854 E0.01248
G1 X132.724 Y114.882 E0.76229
G1 X132.921 Y114.541 E0.01248
G1 X115.893 Y97.513 E0.76229
G1 X116.090 Y97.172 E0.01248
G1 X133.118 Y114.199 E0.76229
G1 X133.315 Y113.858 E0.01248
G1 X116.287 Y96.830 E0.76229
G1 X116.485 Y96.489 E0.01248
G1 X133.512 Y113.517 E0.76229
G1 X133.709 Y113.175 E0.01248
G1 X116.682 Y96.148 E0.76229
G1 X116.879 Y95.806 E0.01248
G1 X133.906 Y112.834 E0.76229
G1 X134.103 Y112.493 E0.01248
G1 X117.076 Y95.465 E0.76229
G1 X117.273 Y95.124 E0.01248
G1 X134.300 Y112.151 E0.76229
G1 X134.498 Y111.810 E0.01248
G1 X117.470 Y94.782 E0.76229
G1 X117.667 Y94.441 E0.01248
G1 X134.695 Y111.469 E0.76229
M73 Q7 S14
G1 X134.892 Y111.127 E0.01248
G1 X117.864 Y94.100 E0.76229
M73 P7 R14
G1 X118.061 Y93.758 E0.01248
G1 X135.089 Y110.786 E0.76229
G1 X135.286 Y110.445 E0.01248
G1 X118.267 Y93.426 E0.76188
G1 X118.300 Y93.397 E0.00139
G1 X118.415 Y93.370 E0.00374
G1 X118.750 Y93.370 E0.01059
G1 X135.483 Y110.103 E0.74910
G1 X135.680 Y109.762 E0.01248
G1 X119.288 Y93.371 E0.73380
G1 X119.827 Y93.371 E0.01706
G1 X135.877 Y109.421 E0.71850
G1 X136.074 Y109.079 E0.01248
G1 X120.366 Y93.371 E0.70320
G1 X120.905 Y93.372 E0.01706
G1 X136.271 Y108.738 E0.68790
G1 X136.468 Y108.397 E0.01248
G1 X121.444 Y93.372 E0.67260
G1 X121.983 Y93.373 E0.01706
G1 X136.665 Y108.055 E0.65730
G1 X136.862 Y107.714 E0.01248
G1 X122.521 Y93.373 E0.64200
G1 X123.060 Y93.374 E0.01706
G1 X137.059 Y107.373 E0.62671
G1 X137.256 Y107.031 E0.01248
G1 X123.599 Y93.374 E0.61141
G1 X124.138 Y93.375 E0.01706
G1 X137.454 Y106.690 E0.59611
G1 X137.651 Y106.349 E0.01248
G1 X124.677 Y93.375 E0.58081
G1 X125.216 Y93.375 E0.01706
G1 X137.848 Y106.007 E0.56551
G1 X138.045 Y105.666 E0.01248
G1 X125.754 Y93.376 E0.55021
G1 X126.293 Y93.376 E0.01706
G1 X138.242 Y105.325 E0.53491
G1 X138.396 Y105.027 E0.01063
G1 X138.373 Y104.918 E0.00353
G1 X126.832 Y93.377 E0.51666
G1 X127.371 Y93.377 E0.01706
G1 X138.122 Y104.128 E0.48129
G1 F8640
G1 X135.794 Y101.801 E-0.76000
G1 E-0.04000 F2100.00000
G1 Z0.800 F10800.000
G1 X137.386 Y102.854
G1 Z0.200
G1 E0.80000 F2100.00000
G1 F1200
G1 X127.910 Y93.378 E0.42425
G1 X128.449 Y93.378 E0.01706
G1 X136.651 Y101.580 E0.36720
G1 F8640
G1 X134.324 Y99.253 E-0.76000
G1 E-0.04000 F2100.00000
G1 Z0.800 F10800.000
G1 X135.916 Y100.307
G1 Z0.200
G1 E0.80000 F2100.00000
G1 F1200
G1 X128.987 Y93.378 E0.31015
G1 X129.526 Y93.379 E0.01706
G1 X135.180 Y99.033 E0.25311
G1 F8640
G1 X132.853 Y96.705 E-0.76000
G1 E-0.04000 F2100.00000
G1 Z0.800 F10800.000
G1 X134.445 Y97.759
G1 Z0.200
G1 E0.80000 F2100.00000
G1 F1200
G1 X130.065 Y93.379 E0.19606
G1 X130.604 Y93.380 E0.01706
G1 X133.709 Y96.485 E0.13901
G1 F8640
G1 X131.382 Y94.158 E-0.76000
G1 E-0.04000 F2100.00000
G1 Z0.800 F10800.000
G1 X132.974 Y95.211
G1 Z0.200
G1 E0.80000 F2100.00000
G1 F1200
G1 X131.143 Y93.380 E0.08197
G1 X131.659 Y93.381 E0.01635
G1 X131.700 Y93.399 E0.00140
G1 X132.238 Y93.937 E0.02412
G1 F8640
G1 X131.700 Y93.399 E-0.17590
G1 X131.659 Y93.381 E-0.01019
G1 X131.143 Y93.380 E-0.11926
G1 X132.535 Y94.773 E-0.45465
G1 E-0.04000 F2100.00000
G1 Z0.800 F10800.000
G1 X112.626 Y107.167
G1 Z0.200
G1 E0.80000 F2100.00000
G1 F1200
G1 X122.259 Y116.800 E0.43125
G1 X121.720 Y116.800 F10800.000
G1 F1200
G1 X113.361 Y108.441 E0.37422
G1 F8640
G1 X115.689 Y110.768 E-0.76000
G1 E-0.04000 F2100.00000
G1 Z0.800 F10800.000
G1 X114.097 Y109.714
G1 Z0.200
G1 E0.80000 F2100.00000
G1 F1200
G1 X121.182 Y116.800 E0.31719
G1 X120.644 Y116.800 F10800.000
G1 F1200
G1 X114.832 Y110.988 E0.26017
G1 F8640
G1 X117.159 Y113.316 E-0.76000
G1 E-0.04000 F2100.00000
G1 Z0.800 F10800.000
G1 X115.568 Y112.262
G1 Z0.200
G1 E0.80000 F2100.00000
G1 F1200
G1 X120.105 Y116.800 E0.20314
G1 X119.567 Y116.800 F10800.000
G1 F1200
G1 X116.303 Y113.536 E0.14611
G1 F8640
G1 X118.630 Y115.863 E-0.76000
G1 E-0.04000 F2100.00000
G1 Z0.800 F10800.000
G1 X117.038 Y114.810
G1 Z0.200
G1 E0.80000 F2100.00000
G1 F1200
G1 X119.028 Y116.800 E0.08908
M106 S255
;BEFORE_LAYER_CHANGE
G92 E0.0
;0.35


G1 F8640
G1 X117.038 Y114.810 E-0.64981
G1 E-0.15019 F2100.00000
G1 Z0.800 F10800.000
;AFTER_LAYER_CHANGE
;0.35
G1 X115.952 Y119.129
G1 Z0.350
G1 E0.80000 F2100.00000
G1 F3000
G1 X115.323 Y118.366 E0.02394
G1 X108.563 Y106.654 E0.32703
G1 X108.249 Y105.812 E0.02174
G1 X108.158 Y104.930 E0.02144
G1 X108.259 Y104.147 E0.01910
G1 X108.559 Y103.356 E0.02045
G1 X115.315 Y91.646 E0.32697
G1 X115.902 Y90.917 E0.02263
G1 X116.624 Y90.388 E0.02165
G1 X117.384 Y90.071 E0.01990
G1 X118.280 Y89.936 E0.02191
G1 X131.643 Y89.934 E0.32320
G1 X132.624 Y90.074 E0.02396
G1 X133.481 Y90.449 E0.02264
G1 X134.143 Y90.962 E0.02024
G1 X134.719 Y91.702 E0.02266
G1 X141.545 Y103.573 E0.33120
G1 X141.775 Y104.304 E0.01853
G1 X141.840 Y105.161 E0.02078
G1 X141.732 Y105.888 E0.01777
G1 X141.441 Y106.644 E0.01960
G1 X134.678 Y118.364 E0.32726
G1 X134.067 Y119.111 E0.02335
G1 X133.273 Y119.669 E0.02346
G1 X132.547 Y119.946 E0.01880
G1 X131.647 Y120.065 E0.02197
G1 X118.297 Y120.065 E0.32286
G1 X117.460 Y119.949 E0.02044
G1 X116.780 Y119.696 E0.01756
G1 X116.002 Y119.163 E0.02280
G1 F8640
G1 X115.323 Y118.366 E-0.24186
G1 X114.201 Y116.422 E-0.51814
G1 E-0.04000 F2100.00000
G1 Z0.950 F10800.000
G1 X118.229 Y116.829
G1 Z0.350
G1 E0.80000 F2100.00000
M204 S800
G1 F2700
G1 X118.122 Y116.757 E0.00336
G1 X118.027 Y116.637 E0.00399
G1 X111.436 Y105.220 E0.34349
G1 X111.370 Y105.051 E0.00474
G1 X111.380 Y104.922 E0.00336
G1 X111.436 Y104.780 E0.00399
G1 X118.027 Y93.363 E0.34349
G1 X118.122 Y93.243 E0.00399
G1 X118.209 Y93.185 E0.00272
G1 X118.384 Y93.143 E0.00470
G1 X131.709 Y93.153 E0.34718
G1 X131.837 Y93.211 E0.00368
G1 X131.962 Y93.345 E0.00477
G1 X138.564 Y104.780 E0.34403
G1 X138.630 Y104.949 E0.00474
G1 X138.620 Y105.078 E0.00336
G1 X138.564 Y105.220 E0.00399
G1 X131.973 Y116.637 E0.34349
G1 X131.878 Y116.757 E0.00399
G1 X131.791 Y116.816 E0.00274
G1 X131.612 Y116.857 E0.00477
G1 X118.409 Y116.857 E0.34403
G1 X118.288 Y116.839 E0.00318
M204 S1000
G1 X118.124 Y117.237 F10800.000
M204 S800
G1 F1500
G1 X118.032 Y117.201 E0.00257
G1 X117.835 Y117.066 E0.00622
G1 X117.681 Y116.873 E0.00644
G1 X111.058 Y105.402 E0.34512
G1 X110.965 Y105.164 E0.00667
G1 X110.950 Y105.066 E0.00257
G1 X110.968 Y104.828 E0.00622
G1 X111.058 Y104.598 E0.00644
G1 X117.681 Y93.127 E0.34512
G1 X117.835 Y92.934 E0.00644
G1 X118.025 Y92.804 E0.00600
G1 X118.254 Y92.734 E0.00622
G1 X118.369 Y92.725 E0.00301
G1 X131.754 Y92.735 E0.34876
G1 X131.860 Y92.759 E0.00284
G1 X132.075 Y92.862 E0.00620
G1 X132.244 Y93.018 E0.00598
G1 X132.315 Y93.121 E0.00327
G1 X138.942 Y104.598 E0.34531
G1 X139.035 Y104.836 E0.00667
G1 X139.050 Y104.934 E0.00257
G1 X139.032 Y105.172 E0.00622
G1 X138.942 Y105.402 E0.00644
G1 X132.319 Y116.873 E0.34512
G1 X132.165 Y117.066 E0.00644
G1 X131.974 Y117.196 E0.00601
G1 X131.755 Y117.264 E0.00598
G1 X131.630 Y117.275 E0.00327
G1 X118.377 Y117.275 E0.34531
G1 X118.184 Y117.246 E0.00510
M204 S1000
G1 X118.098 Y117.142 F10800.000
G1 F8640
G1 X118.032 Y117.201 E-0.03644
G1 X117.835 Y117.066 E-0.05514
G1 X117.681 Y116.873 E-0.05710
G1 X116.357 Y114.580 E-0.61131
G1 E-0.04000 F2100.00000
G1 Z0.950 F10800.000
G1 X126.684 Y116.732
G1 Z0.350
G1 E0.80000 F2100.00000
M204 S1250
G1 F4800
G1 X138.211 Y105.205 E0.42864
G1 X138.312 Y104.996 E0.00609
G1 X138.143 Y104.677 E0.00950
G1 X126.276 Y116.544 E0.44128
G1 X125.680 Y116.544 E0.01568
G1 X137.925 Y104.299 E0.45534
G1 X137.707 Y103.921 E0.01148
G1 X125.084 Y116.544 E0.46940
G1 X124.487 Y116.544 E0.01568
G1 X137.488 Y103.543 E0.48346
G1 X137.270 Y103.165 E0.01148
G1 X123.891 Y116.544 E0.49751
G1 X123.295 Y116.544 E0.01568
G1 X137.052 Y102.787 E0.51157
G1 X136.834 Y102.409 E0.01148
G1 X122.698 Y116.544 E0.52563
G1 X122.102 Y116.544 E0.01568
G1 X136.615 Y102.031 E0.53968
G1 X136.397 Y101.653 E0.01148
G1 X121.506 Y116.544 E0.55374
G1 X120.910 Y116.544 E0.01568
G1 X136.179 Y101.275 E0.56780
G1 X135.961 Y100.897 E0.01148
G1 X120.313 Y116.544 E0.58186
G1 X119.717 Y116.544 E0.01568
G1 X135.742 Y100.519 E0.59591
G1 X135.524 Y100.141 E0.01148
G1 X119.121 Y116.544 E0.60997
G1 X118.524 Y116.544 E0.01568
G1 X135.306 Y99.763 E0.62403
G1 X135.088 Y99.384 E0.01148
G1 X118.186 Y116.286 E0.62849
G1 X117.968 Y115.908 E0.01148
G1 X134.869 Y99.006 E0.62849
G1 X134.651 Y98.628 E0.01148
G1 X117.750 Y115.530 E0.62849
G1 X117.531 Y115.152 E0.01148
G1 X134.433 Y98.250 E0.62849
G1 X134.215 Y97.872 E0.01148
G1 X117.313 Y114.774 E0.62849
G1 X117.095 Y114.396 E0.01148
G1 X133.996 Y97.494 E0.62849
G1 X133.778 Y97.116 E0.01148
G1 X116.877 Y114.018 E0.62849
G1 X116.658 Y113.640 E0.01148
G1 X133.560 Y96.738 E0.62849
G1 X133.342 Y96.360 E0.01148
G1 X116.440 Y113.262 E0.62849
G1 X116.222 Y112.884 E0.01148
G1 X133.123 Y95.982 E0.62849
G1 X132.905 Y95.604 E0.01148
G1 X116.004 Y112.506 E0.62849
G1 X115.785 Y112.128 E0.01148
G1 X132.687 Y95.226 E0.62849
G1 X132.469 Y94.848 E0.01148
G1 X115.567 Y111.750 E0.62849
G1 X115.349 Y111.371 E0.01148
G1 X132.250 Y94.470 E0.62849
G1 X132.032 Y94.092 E0.01148
G1 X115.131 Y110.993 E0.62849
G1 X114.912 Y110.615 E0.01148
G1 X131.814 Y93.714 E0.62849
G1 X131.709 Y93.533 E0.00551
G1 X131.651 Y93.471 E0.00222
G1 X131.465 Y93.466 E0.00490
G1 X114.694 Y110.237 E0.62365
G1 X114.476 Y109.859 E0.01148
G1 X130.869 Y93.466 E0.60961
