; generated by PrusaSlicer 2.0.0+win64 on 2019-06-27 at 15:57:30

; 

; external perimeters extrusion width = 0.45mm
; perimeters extrusion width = 0.45mm
; infill extrusion width = 0.45mm
; solid infill extrusion width = 0.45mm
; top infill extrusion width = 0.40mm
; first layer extrusion width = 0.42mm

M73 P0 R65
M73 Q0 S65
M201 X1000 Y1000 Z1000 E5000 ; sets maximum accelerations, mm/sec^2
M203 X200 Y200 Z12 E120 ; sets maximum feedrates, mm/sec
M204 P1250 R1250 T1250 ; sets acceleration (P, T) and retract acceleration (R), mm/sec^2
M205 X8.00 Y8.00 Z0.40 E1.50 ; sets the jerk limits, mm/sec
M205 S0 T0 ; sets the minimum extruding and travel feed rate, mm/sec
M107
M115 U3.7.1 ; tell printer latest fw version
G90 ; use absolute coordinates
M83 ; extruder relative mode
M104 S215 ; set extruder temp
M140 S60 ; set bed temp
M190 S60 ; wait for bed temp
M109 S215 ; wait for extruder temp
G28 W ; home all without mesh bed level
G80 ; mesh bed leveling
G1 Y-3.0 F1000.0 ; go outside print area
G92 E0.0
G1 X60.0 E9.0 F1000.0 ; intro line
M73 Q0 S65
M73 P0 R65
G1 X100.0 E12.5 F1000.0 ; intro line
G92 E0.0
M221 S95
M900 K30 ; Filament gcode
G21 ; set units to millimeters
G90 ; use absolute coordinates
M83 ; use relative distances for extrusion
;BEFORE_LAYER_CHANGE
G92 E0.0
;0.2


G1 E-0.80000 F2100.00000
G1 Z0.600 F10800.000
;AFTER_LAYER_CHANGE
;0.2
G1 X89.763 Y82.045
G1 Z0.200
G1 E0.80000 F2100.00000
M204 S1000
G1 F1200
G1 X90.183 Y81.738 E0.01630
G1 X113.597 Y68.114 E0.84937
G1 X114.343 Y67.779 E0.02564
G1 X115.185 Y67.646 E0.02673
G1 X128.540 Y67.645 E0.41874
G1 X129.417 Y67.769 E0.02778
G1 X130.185 Y68.107 E0.02630
G1 X153.204 Y81.673 E0.83775
G1 X153.685 Y82.037 E0.01889
G1 X154.277 Y82.771 E0.02958
G1 X161.070 Y94.572 E0.42695
G1 X161.290 Y95.250 E0.02234
G1 X161.350 Y96.043 E0.02493
G1 X161.247 Y96.699 E0.02084
G1 X160.960 Y97.418 E0.02424
G1 X154.267 Y109.012 E0.41976
G1 X153.923 Y109.482 E0.01827
G1 X153.390 Y109.969 E0.02264
G1 X107.430 Y136.934 E1.67074
G1 X106.753 Y137.206 E0.02289
G1 X105.921 Y137.319 E0.02632
G1 X92.581 Y137.318 E0.41827
G1 X91.801 Y137.207 E0.02471
G1 X91.164 Y136.958 E0.02144
G1 X90.459 Y136.459 E0.02708
G1 X89.900 Y135.768 E0.02786
G1 X83.224 Y124.206 E0.41863
G1 X82.879 Y123.296 E0.03051
G1 X82.029 Y96.060 E0.85436
G1 X82.110 Y95.226 E0.02627
G1 X82.420 Y94.416 E0.02720
G1 X89.106 Y82.834 E0.41930
G1 X89.725 Y82.091 E0.03032
G1 F8640
G1 X90.183 Y81.738 E-0.13353
G1 X92.528 Y80.374 E-0.62647
G1 E-0.04000 F2100.00000
G1 Z0.800 F10800.000
G1 X92.360 Y110.833
G1 Z0.200
G1 E0.80000 F2100.00000
G1 F1200
G1 X92.460 Y110.764 E0.00380
G1 X92.658 Y110.717 E0.00638
G1 X105.995 Y110.728 E0.41818
G1 X106.144 Y110.795 E0.00512
G1 X106.284 Y110.944 E0.00641
G1 X112.890 Y122.386 E0.41426
G1 X112.961 Y122.579 E0.00644
G1 X112.951 Y122.721 E0.00446
G1 X112.890 Y122.875 E0.00519
G1 X106.295 Y134.299 E0.41360
G1 X106.191 Y134.428 E0.00519
G1 X106.091 Y134.497 E0.00381
G1 X105.892 Y134.543 E0.00641
G1 X92.680 Y134.543 E0.41425
G1 X92.478 Y134.509 E0.00642
G1 X92.360 Y134.428 E0.00450
G1 X92.256 Y134.299 E0.00519
G1 X85.661 Y122.875 E0.41361
G1 X85.590 Y122.682 E0.00644
G1 X85.600 Y122.540 E0.00446
G1 X85.661 Y122.386 E0.00519
G1 X92.256 Y110.962 E0.41360
G1 X92.322 Y110.879 E0.00331
G1 X92.027 Y110.644 F10800.000
G1 F1200
G1 X92.100 Y110.553 E0.00366
G1 X92.294 Y110.421 E0.00736
G1 X92.526 Y110.349 E0.00761
G1 X92.644 Y110.340 E0.00370
G1 X106.037 Y110.351 E0.41994
G1 X106.140 Y110.374 E0.00332
G1 X106.359 Y110.480 E0.00760
G1 X106.534 Y110.642 E0.00751
G1 X106.603 Y110.742 E0.00381
G1 X113.231 Y122.222 E0.41561
G1 X113.324 Y122.459 E0.00801
G1 X113.340 Y122.564 E0.00332
G1 X113.322 Y122.806 E0.00760
G1 X113.231 Y123.039 E0.00786
G1 X106.607 Y134.512 E0.41537
G1 X106.451 Y134.708 E0.00786
G1 X106.257 Y134.840 E0.00736
G1 X106.028 Y134.911 E0.00751
G1 X105.907 Y134.920 E0.00381
G1 X92.652 Y134.920 E0.41560
G1 X92.396 Y134.882 E0.00811
G1 X92.301 Y134.844 E0.00320
G1 X92.100 Y134.708 E0.00761
G1 X91.944 Y134.512 E0.00786
G1 X85.320 Y123.039 E0.41537
G1 X85.227 Y122.801 E0.00801
G1 X85.210 Y122.697 E0.00332
G1 X85.228 Y122.455 E0.00760
G1 X85.320 Y122.222 E0.00786
G1 X91.990 Y110.691 E0.41766
G1 X92.144 Y110.656 F10800.000
G1 F8640
G1 X92.100 Y110.553 E-0.04083
G1 X92.294 Y110.421 E-0.05421
G1 X92.526 Y110.349 E-0.05606
G1 X92.644 Y110.340 E-0.02721
G1 X95.163 Y110.342 E-0.58169
G1 E-0.04000 F2100.00000
G1 Z0.800 F10800.000
G1 X86.166 Y123.523
G1 Z0.200
G1 E0.80000 F2100.00000
G1 F1200
G1 X96.903 Y134.260 E0.48068
G1 X97.441 Y134.260 E0.01704
G1 X85.907 Y122.727 E0.51634
G1 X85.879 Y122.604 E0.00400
G1 X86.030 Y122.311 E0.01042
G1 X97.980 Y134.260 E0.53494
G1 X98.518 Y134.260 E0.01704
G1 X86.227 Y121.970 E0.55022
G1 X86.425 Y121.629 E0.01248
G1 X99.056 Y134.260 E0.56550
G1 X99.595 Y134.260 E0.01704
G1 X86.622 Y121.287 E0.58078
G1 X86.819 Y120.946 E0.01248
G1 X100.133 Y134.260 E0.59606
G1 X100.672 Y134.260 E0.01704
G1 X87.016 Y120.605 E0.61134
G1 X87.213 Y120.263 E0.01248
G1 X101.210 Y134.260 E0.62662
G1 X101.748 Y134.260 E0.01704
G1 X87.410 Y119.922 E0.64190
G1 X87.607 Y119.581 E0.01248
G1 X102.287 Y134.260 E0.65718
G1 X102.825 Y134.260 E0.01704
G1 X87.804 Y119.239 E0.67246
G1 X88.001 Y118.898 E0.01248
G1 X103.364 Y134.260 E0.68774
G1 X103.902 Y134.260 E0.01704
G1 X88.198 Y118.557 E0.70303
G1 X88.395 Y118.215 E0.01248
G1 X104.440 Y134.260 E0.71831
G1 X104.979 Y134.260 E0.01704
G1 X88.592 Y117.874 E0.73359
G1 X88.789 Y117.533 E0.01248
G1 X105.517 Y134.260 E0.74887
G1 X105.859 Y134.260 E0.01083
G1 X105.975 Y134.233 E0.00377
G1 X106.004 Y134.209 E0.00120
G1 X88.986 Y117.191 E0.76185
G1 X89.183 Y116.850 E0.01248
G1 X106.211 Y133.878 E0.76229
G1 X106.408 Y133.536 E0.01248
G1 X89.381 Y116.509 E0.76229
G1 X89.578 Y116.167 E0.01248
G1 X106.605 Y133.195 E0.76229
G1 X106.802 Y132.854 E0.01248
G1 X89.775 Y115.826 E0.76229
G1 X89.972 Y115.485 E0.01248
G1 X106.999 Y132.512 E0.76229
G1 X107.196 Y132.171 E0.01248
G1 X90.169 Y115.143 E0.76229
G1 X90.366 Y114.802 E0.01248
G1 X107.394 Y131.830 E0.76229
G1 X107.591 Y131.488 E0.01248
G1 X90.563 Y114.461 E0.76229
G1 X90.760 Y114.119 E0.01248
G1 X107.788 Y131.147 E0.76229
G1 X107.985 Y130.806 E0.01248
G1 X90.957 Y113.778 E0.76229
G1 X91.154 Y113.437 E0.01248
G1 X108.182 Y130.464 E0.76229
G1 X108.379 Y130.123 E0.01248
G1 X91.351 Y113.095 E0.76229
G1 X91.548 Y112.754 E0.01248
G1 X108.576 Y129.782 E0.76229
G1 X108.773 Y129.440 E0.01248
G1 X91.745 Y112.413 E0.76229
M73 Q1 S64
M73 P1 R64
G1 X91.942 Y112.071 E0.01248
G1 X108.970 Y129.099 E0.76229
G1 X109.167 Y128.758 E0.01248
G1 X92.139 Y111.730 E0.76229
G1 X92.336 Y111.389 E0.01248
G1 X109.364 Y128.416 E0.76229
G1 X109.561 Y128.075 E0.01248
G1 X92.543 Y111.056 E0.76188
G1 X92.576 Y111.027 E0.00139
G1 X92.691 Y111.000 E0.00374
G1 X93.025 Y111.001 E0.01059
G1 X109.758 Y127.734 E0.74910
G1 X109.955 Y127.392 E0.01248
G1 X93.564 Y111.001 E0.73380
G1 X94.103 Y111.001 E0.01706
G1 X110.152 Y127.051 E0.71850
G1 X110.350 Y126.710 E0.01248
G1 X94.642 Y111.002 E0.70320
G1 X95.180 Y111.002 E0.01706
G1 X110.547 Y126.368 E0.68790
G1 X110.744 Y126.027 E0.01248
G1 X95.719 Y111.003 E0.67260
G1 X96.258 Y111.003 E0.01706
G1 X110.941 Y125.686 E0.65730
G1 X111.138 Y125.344 E0.01248
G1 X96.797 Y111.004 E0.64200
G1 X97.336 Y111.004 E0.01706
G1 X111.335 Y125.003 E0.62671
G1 X111.532 Y124.662 E0.01248
G1 X97.875 Y111.004 E0.61141
G1 X98.413 Y111.005 E0.01706
G1 X111.729 Y124.320 E0.59611
G1 X111.926 Y123.979 E0.01248
G1 X98.952 Y111.005 E0.58081
G1 X99.491 Y111.006 E0.01706
G1 X112.123 Y123.638 E0.56551
G1 X112.320 Y123.296 E0.01248
G1 X100.030 Y111.006 E0.55021
G1 X100.569 Y111.007 E0.01706
G1 X112.517 Y122.955 E0.53491
G1 X112.672 Y122.657 E0.01063
G1 X112.649 Y122.548 E0.00353
G1 X101.108 Y111.007 E0.51666
G1 X101.646 Y111.008 E0.01706
G1 X112.397 Y121.758 E0.48129
G1 F8640
G1 X110.070 Y119.431 E-0.76000
G1 E-0.04000 F2100.00000
G1 Z0.800 F10800.000
G1 X111.662 Y120.485
G1 Z0.200
G1 E0.80000 F2100.00000
G1 F1200
G1 X102.185 Y111.008 E0.42425
G1 X102.724 Y111.008 E0.01706
G1 X110.926 Y119.211 E0.36720
G1 F8640
G1 X108.599 Y116.883 E-0.76000
G1 E-0.04000 F2100.00000
G1 Z0.800 F10800.000
G1 X110.191 Y117.937
G1 Z0.200
G1 E0.80000 F2100.00000
G1 F1200
G1 X103.263 Y111.009 E0.31015
G1 X103.802 Y111.009 E0.01706
G1 X109.455 Y116.663 E0.25311
G1 F8640
G1 X107.128 Y114.336 E-0.76000
G1 E-0.04000 F2100.00000
G1 Z0.800 F10800.000
G1 X108.720 Y115.389
G1 Z0.200
G1 E0.80000 F2100.00000
G1 F1200
G1 X104.341 Y111.010 E0.19606
G1 X104.879 Y111.010 E0.01706
G1 X107.985 Y114.115 E0.13901
G1 F8640
G1 X105.657 Y111.788 E-0.76000
G1 E-0.04000 F2100.00000
G1 Z0.800 F10800.000
G1 X107.249 Y112.842
G1 Z0.200
G1 E0.80000 F2100.00000
G1 F1200
G1 X105.418 Y111.011 E0.08197
G1 X105.935 Y111.011 E0.01635
G1 X105.975 Y111.029 E0.00140
G1 X106.514 Y111.568 E0.02412
G1 F8640
G1 X105.975 Y111.029 E-0.17590
G1 X105.935 Y111.011 E-0.01019
G1 X105.418 Y111.011 E-0.11926
G1 X106.810 Y112.403 E-0.45465
G1 E-0.04000 F2100.00000
G1 Z0.800 F10800.000
G1 X86.901 Y124.797
G1 Z0.200
G1 E0.80000 F2100.00000
G1 F1200
G1 X96.534 Y134.430 E0.43125
G1 X95.996 Y134.430 F10800.000
G1 F1200
G1 X87.637 Y126.071 E0.37422
G1 F8640
G1 X89.964 Y128.398 E-0.76000
G1 E-0.04000 F2100.00000
G1 Z0.800 F10800.000
G1 X88.372 Y127.345
G1 Z0.200
G1 E0.80000 F2100.00000
G1 F1200
G1 X95.457 Y134.430 E0.31719
G1 X94.919 Y134.430 F10800.000
G1 F1200
G1 X89.108 Y128.619 E0.26017
G1 F8640
G1 X91.435 Y130.946 E-0.76000
G1 E-0.04000 F2100.00000
G1 Z0.800 F10800.000
G1 X89.843 Y129.893
G1 Z0.200
G1 E0.80000 F2100.00000
G1 F1200
G1 X94.381 Y134.430 E0.20314
G1 X93.842 Y134.430 F10800.000
G1 F1200
G1 X90.578 Y131.166 E0.14611
G1 F8640
G1 X92.906 Y133.494 E-0.76000
G1 E-0.04000 F2100.00000
G1 Z0.800 F10800.000
G1 X91.314 Y132.440
G1 Z0.200
G1 E0.80000 F2100.00000
G1 F1200
G1 X93.304 Y134.430 E0.08908
G1 F8640
G1 X91.314 Y132.440 E-0.64981
G1 E-0.15019 F2100.00000
G1 Z0.800 F10800.000
G1 X91.713 Y107.836
G1 Z0.200
G1 E0.80000 F2100.00000
G1 F1200
G1 X91.578 Y107.749 E0.00502
G1 X91.475 Y107.619 E0.00519
G1 X84.879 Y96.195 E0.41361
G1 X84.808 Y96.002 E0.00644
G1 X84.819 Y95.860 E0.00446
G1 X84.879 Y95.706 E0.00519
G1 X91.475 Y84.282 E0.41360
G1 X91.578 Y84.153 E0.00519
G1 X91.678 Y84.085 E0.00380
G1 X91.876 Y84.038 E0.00638
G1 X105.214 Y84.049 E0.41818
G1 X105.363 Y84.115 E0.00512
G1 X105.503 Y84.264 E0.00641
G1 X112.109 Y95.706 E0.41426
G1 X112.180 Y95.899 E0.00644
G1 X112.169 Y96.041 E0.00446
G1 X112.109 Y96.195 E0.00519
G1 X105.513 Y107.619 E0.41360
G1 X105.410 Y107.749 E0.00519
G1 X105.310 Y107.817 E0.00381
G1 X105.110 Y107.864 E0.00641
G1 X91.898 Y107.864 E0.41425
G1 X91.772 Y107.845 E0.00401
G1 X91.614 Y108.202 F10800.000
G1 F1200
G1 X91.519 Y108.165 E0.00320
G1 X91.319 Y108.028 E0.00761
G1 X91.162 Y107.832 E0.00786
G1 X84.539 Y96.359 E0.41537
G1 X84.445 Y96.122 E0.00801
G1 X84.429 Y96.017 E0.00332
G1 X84.447 Y95.776 E0.00760
G1 X84.539 Y95.542 E0.00786
G1 X91.162 Y84.069 E0.41537
G1 X91.319 Y83.873 E0.00786
G1 X91.513 Y83.741 E0.00736
G1 X91.745 Y83.670 E0.00761
G1 X91.862 Y83.661 E0.00370
G1 X105.255 Y83.672 E0.41994
G1 X105.359 Y83.695 E0.00332
G1 X105.577 Y83.800 E0.00760
G1 X105.753 Y83.963 E0.00751
G1 X105.822 Y84.063 E0.00381
G1 X112.449 Y95.542 E0.41561
G1 X112.543 Y95.780 E0.00801
G1 X112.559 Y95.884 E0.00332
G1 X112.541 Y96.126 E0.00760
G1 X112.449 Y96.359 E0.00786
G1 X105.826 Y107.832 E0.41537
G1 X105.669 Y108.028 E0.00786
G1 X105.475 Y108.160 E0.00736
G1 X105.246 Y108.231 E0.00751
G1 X105.125 Y108.241 E0.00381
G1 X91.870 Y108.241 E0.41560
G1 X91.674 Y108.211 E0.00623
G1 X91.587 Y108.104 F10800.000
G1 X92.522 Y107.751
G1 F1200
G1 X90.532 Y105.761 E0.08908
G1 F8640
G1 X92.522 Y107.751 E-0.64981
G1 E-0.15019 F2100.00000
G1 Z0.800 F10800.000
G1 X89.797 Y104.487
G1 Z0.200
G1 E0.80000 F2100.00000
G1 F1200
G1 X93.061 Y107.751 E0.14611
G1 X93.599 Y107.751 F10800.000
G1 F1200
G1 X89.062 Y103.213 E0.20314
G1 F8640
G1 X91.389 Y105.540 E-0.76000
G1 E-0.04000 F2100.00000
G1 Z0.800 F10800.000
G1 X88.326 Y101.939
G1 Z0.200
G1 E0.80000 F2100.00000
G1 F1200
G1 X94.138 Y107.751 E0.26017
G1 X94.676 Y107.751 F10800.000
G1 F1200
G1 X87.591 Y100.665 E0.31719
G1 F8640
G1 X89.918 Y102.993 E-0.76000
G1 E-0.04000 F2100.00000
G1 Z0.800 F10800.000
G1 X86.855 Y99.391
G1 Z0.200
G1 E0.80000 F2100.00000
G1 F1200
G1 X95.214 Y107.751 E0.37422
G1 X95.753 Y107.751 F10800.000
G1 F1200
G1 X86.120 Y98.118 E0.43125
G1 F8640
G1 X88.447 Y100.445 E-0.76000
G1 E-0.04000 F2100.00000
G1 Z0.800 F10800.000
G1 X85.384 Y96.844
G1 Z0.200
G1 E0.80000 F2100.00000
G1 F1200
G1 X96.121 Y107.581 E0.48068
G1 X96.660 Y107.581 E0.01704
G1 X85.126 Y96.047 E0.51634
G1 X85.098 Y95.924 E0.00400
G1 X85.249 Y95.632 E0.01042
G1 X97.198 Y107.581 E0.53494
G1 X97.737 Y107.581 E0.01704
G1 X85.446 Y95.290 E0.55022
G1 X85.643 Y94.949 E0.01248
G1 X98.275 Y107.581 E0.56550
G1 X98.813 Y107.581 E0.01704
G1 X85.840 Y94.608 E0.58078
G1 X86.037 Y94.266 E0.01248
G1 X99.352 Y107.581 E0.59606
G1 X99.890 Y107.581 E0.01704
G1 X86.234 Y93.925 E0.61134
G1 X86.431 Y93.584 E0.01248
G1 X100.429 Y107.581 E0.62662
G1 X100.967 Y107.581 E0.01704
G1 X86.628 Y93.242 E0.64190
G1 X86.825 Y92.901 E0.01248
G1 X101.505 Y107.581 E0.65718
G1 X102.044 Y107.581 E0.01704
G1 X87.023 Y92.560 E0.67246
G1 X87.220 Y92.218 E0.01248
G1 X102.582 Y107.581 E0.68774
G1 X103.121 Y107.581 E0.01704
G1 X87.417 Y91.877 E0.70303
G1 X87.614 Y91.536 E0.01248
G1 X103.659 Y107.581 E0.71831
M73 Q3 S63
M73 P3 R63
G1 X104.197 Y107.581 E0.01704
G1 X87.811 Y91.194 E0.73359
G1 X88.008 Y90.853 E0.01248
G1 X104.736 Y107.581 E0.74887
G1 X105.078 Y107.581 E0.01083
G1 X105.194 Y107.554 E0.00377
G1 X105.223 Y107.530 E0.00120
G1 X88.205 Y90.512 E0.76185
G1 X88.402 Y90.170 E0.01248
G1 X105.430 Y107.198 E0.76229
G1 X105.627 Y106.857 E0.01248
G1 X88.599 Y89.829 E0.76229
G1 X88.796 Y89.488 E0.01248
G1 X105.824 Y106.515 E0.76229
G1 X106.021 Y106.174 E0.01248
G1 X88.993 Y89.146 E0.76229
G1 X89.190 Y88.805 E0.01248
G1 X106.218 Y105.833 E0.76229
G1 X106.415 Y105.491 E0.01248
G1 X89.387 Y88.464 E0.76229
G1 X89.584 Y88.122 E0.01248
G1 X106.612 Y105.150 E0.76229
G1 X106.809 Y104.809 E0.01248
G1 X89.781 Y87.781 E0.76229
G1 X89.979 Y87.440 E0.01248
G1 X107.006 Y104.467 E0.76229
G1 X107.203 Y104.126 E0.01248
G1 X90.176 Y87.098 E0.76229
G1 X90.373 Y86.757 E0.01248
G1 X107.400 Y103.785 E0.76229
G1 X107.597 Y103.443 E0.01248
G1 X90.570 Y86.416 E0.76229
G1 X90.767 Y86.074 E0.01248
G1 X107.794 Y103.102 E0.76229
G1 X107.992 Y102.761 E0.01248
G1 X90.964 Y85.733 E0.76229
G1 X91.161 Y85.392 E0.01248
G1 X108.189 Y102.420 E0.76229
G1 X108.386 Y102.078 E0.01248
G1 X91.358 Y85.050 E0.76229
G1 X91.555 Y84.709 E0.01248
G1 X108.583 Y101.737 E0.76229
G1 X108.780 Y101.396 E0.01248
G1 X91.761 Y84.377 E0.76188
G1 X91.794 Y84.348 E0.00139
G1 X91.909 Y84.321 E0.00374
G1 X92.244 Y84.321 E0.01059
G1 X108.977 Y101.054 E0.74910
G1 X109.174 Y100.713 E0.01248
G1 X92.782 Y84.321 E0.73380
G1 X93.321 Y84.322 E0.01706
G1 X109.371 Y100.372 E0.71850
G1 X109.568 Y100.030 E0.01248
G1 X93.860 Y84.322 E0.70320
G1 X94.399 Y84.323 E0.01706
G1 X109.765 Y99.689 E0.68790
G1 X109.962 Y99.348 E0.01248
G1 X94.938 Y84.323 E0.67260
G1 X95.477 Y84.324 E0.01706
G1 X110.159 Y99.006 E0.65730
G1 X110.356 Y98.665 E0.01248
G1 X96.015 Y84.324 E0.64200
G1 X96.554 Y84.324 E0.01706
G1 X110.553 Y98.324 E0.62671
G1 X110.750 Y97.982 E0.01248
G1 X97.093 Y84.325 E0.61141
G1 X97.632 Y84.325 E0.01706
G1 X110.948 Y97.641 E0.59611
G1 X111.145 Y97.300 E0.01248
G1 X98.171 Y84.326 E0.58081
G1 X98.710 Y84.326 E0.01706
G1 X111.342 Y96.958 E0.56551
G1 X111.539 Y96.617 E0.01248
G1 X99.248 Y84.327 E0.55021
G1 X99.787 Y84.327 E0.01706
G1 X111.736 Y96.276 E0.53491
G1 X111.890 Y95.978 E0.01063
G1 X111.867 Y95.869 E0.00353
G1 X100.326 Y84.328 E0.51666
G1 X100.865 Y84.328 E0.01706
G1 X111.616 Y95.079 E0.48129
G1 F8640
G1 X109.288 Y92.752 E-0.76000
G1 E-0.04000 F2100.00000
G1 Z0.800 F10800.000
G1 X110.880 Y93.805
G1 Z0.200
G1 E0.80000 F2100.00000
G1 F1200
G1 X101.404 Y84.328 E0.42425
G1 X101.943 Y84.329 E0.01706
G1 X110.145 Y92.531 E0.36720
G1 F8640
G1 X107.818 Y90.204 E-0.76000
G1 E-0.04000 F2100.00000
G1 Z0.800 F10800.000
