; generated by PrusaSlicer 2.0.0+win64 on 2019-07-08 at 12:56:59

; 

; external perimeters extrusion width = 0.45mm
; perimeters extrusion width = 0.45mm
; infill extrusion width = 0.45mm
; solid infill extrusion width = 0.45mm
; top infill extrusion width = 0.40mm
; first layer extrusion width = 0.42mm

M73 P0 R121
M73 Q0 S122
M201 X1000 Y1000 Z1000 E5000 ; sets maximum accelerations, mm/sec^2
M203 X200 Y200 Z12 E120 ; sets maximum feedrates, mm/sec
M204 P1250 R1250 T1250 ; sets acceleration (P, T) and retract acceleration (R), mm/sec^2
M205 X8.00 Y8.00 Z0.40 E1.50 ; sets the jerk limits, mm/sec
M205 S0 T0 ; sets the minimum extruding and travel feed rate, mm/sec
M107
M115 U3.7.1 ; tell printer latest fw version
G90 ; use absolute coordinates
M83 ; extruder relative mode
M104 S215 ; set extruder temp
M140 S60 ; set bed temp
M190 S60 ; wait for bed temp
M109 S215 ; wait for extruder temp
G28 W ; home all without mesh bed level
G80 ; mesh bed leveling
G1 Y-3.0 F1000.0 ; go outside print area
G92 E0.0
G1 X60.0 E9.0 F1000.0 ; intro line
M73 Q0 S122
M73 P0 R121
G1 X100.0 E12.5 F1000.0 ; intro line
G92 E0.0
M221 S95
M900 K30 ; Filament gcode
G21 ; set units to millimeters
G90 ; use absolute coordinates
M83 ; use relative distances for extrusion
;BEFORE_LAYER_CHANGE
G92 E0.0
;0.2


G1 E-0.80000 F2100.00000
G1 Z0.600 F10800.000
;AFTER_LAYER_CHANGE
;0.2
G1 X81.858 Y59.379
G1 Z0.200
G1 E0.80000 F2100.00000
M204 S1000
G1 F1200
G1 X82.466 Y59.312 E0.01917
G1 X167.504 Y59.311 E2.66631
G1 X168.049 Y59.360 E0.01717
G1 X168.639 Y59.524 E0.01921
G1 X169.258 Y59.842 E0.02180
G1 X169.732 Y60.224 E0.01911
G1 X170.101 Y60.655 E0.01778
G1 X170.400 Y61.178 E0.01889
G1 X170.619 Y61.845 E0.02202
G1 X170.687 Y62.433 E0.01854
G1 X170.688 Y147.522 E2.66791
G1 X170.628 Y148.110 E0.01853
G1 X170.423 Y148.767 E0.02160
G1 X170.135 Y149.293 E0.01878
G1 X169.786 Y149.722 E0.01736
G1 X169.342 Y150.102 E0.01831
G1 X168.809 Y150.406 E0.01926
G1 X168.133 Y150.623 E0.02225
G1 X167.511 Y150.688 E0.01962
G1 X82.478 Y150.688 E2.66614
G1 X81.890 Y150.628 E0.01853
G1 X81.227 Y150.420 E0.02180
G1 X80.699 Y150.130 E0.01889
G1 X80.278 Y149.786 E0.01704
G1 X79.898 Y149.342 E0.01833
G1 X79.596 Y148.812 E0.01913
G1 X79.377 Y148.133 E0.02237
G1 X79.312 Y147.511 E0.01962
G1 X79.312 Y62.478 E2.66614
G1 X79.372 Y61.894 E0.01843
G1 X79.584 Y61.217 E0.02224
G1 X79.872 Y60.695 E0.01869
G1 X80.216 Y60.275 E0.01703
G1 X80.655 Y59.899 E0.01812
G1 X81.181 Y59.599 E0.01898
G1 X81.801 Y59.397 E0.02043
G1 F8640
G1 X82.466 Y59.312 E-0.15476
G1 X85.087 Y59.312 E-0.60524
G1 E-0.04000 F2100.00000
G1 Z0.800 F10800.000
G1 X113.168 Y93.257
G1 Z0.200
G1 E0.80000 F2100.00000
G1 F1200
G1 X113.316 Y93.139 E0.00595
G1 X113.523 Y93.087 E0.00669
G1 X136.584 Y93.099 E0.72306
G1 X136.665 Y93.125 E0.00267
G1 X136.787 Y93.213 E0.00472
G1 X136.861 Y93.316 E0.00398
G1 X136.913 Y93.523 E0.00669
G1 X136.913 Y116.477 E0.71970
G1 X136.861 Y116.684 E0.00669
G1 X136.773 Y116.806 E0.00472
G1 X136.607 Y116.896 E0.00592
G1 X136.477 Y116.913 E0.00411
G1 X113.546 Y116.913 E0.71898
G1 X113.374 Y116.886 E0.00546
G1 X113.209 Y116.790 E0.00600
G1 X113.104 Y116.607 E0.00660
G1 X113.087 Y116.477 E0.00411
G1 X113.087 Y93.523 E0.71970
G1 X113.140 Y93.310 E0.00688
G1 X112.862 Y93.036 F10800.000
G1 F1200
G1 X112.936 Y92.948 E0.00361
G1 X113.143 Y92.798 E0.00799
G1 X113.385 Y92.720 E0.00799
G1 X113.508 Y92.710 E0.00388
G1 X136.628 Y92.722 E0.72491
G1 X136.851 Y92.793 E0.00733
G1 X137.057 Y92.943 E0.00799
G1 X137.202 Y93.143 E0.00772
G1 X137.280 Y93.385 E0.00799
G1 X137.290 Y93.508 E0.00388
G1 X137.290 Y116.492 E0.72063
G1 X137.280 Y116.615 E0.00388
G1 X137.202 Y116.857 E0.00799
G1 X137.052 Y117.064 E0.00799
G1 X136.970 Y117.133 E0.00336
G1 X136.739 Y117.251 E0.00814
G1 X136.492 Y117.290 E0.00785
G1 X113.517 Y117.290 E0.72037
G1 X113.257 Y117.249 E0.00825
G1 X113.033 Y117.135 E0.00788
G1 X112.942 Y117.058 E0.00374
G1 X112.867 Y116.970 E0.00361
G1 X112.749 Y116.739 E0.00814
G1 X112.710 Y116.492 E0.00785
G1 X112.710 Y93.508 E0.72063
G1 X112.720 Y93.385 E0.00389
G1 X112.831 Y93.087 E0.00996
G1 X112.977 Y93.042 F10800.000
G1 F8640
G1 X112.936 Y92.948 E-0.04032
G1 X113.143 Y92.798 E-0.05882
G1 X113.385 Y92.720 E-0.05882
G1 X113.508 Y92.710 E-0.02858
G1 X115.992 Y92.711 E-0.57346
G1 E-0.04000 F2100.00000
G1 Z0.800 F10800.000
G1 X113.200 Y115.835
G1 Z0.200
G1 E0.80000 F2100.00000
G1 F1200
G1 X113.995 Y116.630 E0.03563
G1 X114.534 Y116.630 E0.01707
G1 X113.370 Y115.466 E0.05217
G1 X113.370 Y114.927 E0.01707
G1 X115.073 Y116.630 E0.07631
G1 X115.612 Y116.630 E0.01707
G1 X113.370 Y114.388 E0.10046
G1 X113.370 Y113.849 E0.01707
G1 X116.151 Y116.630 E0.12461
G1 X116.690 Y116.630 E0.01707
G1 X113.370 Y113.310 E0.14875
G1 X113.370 Y112.771 E0.01707
G1 X117.229 Y116.630 E0.17290
G1 X117.767 Y116.630 E0.01707
G1 X113.370 Y112.233 E0.19704
G1 X113.370 Y111.694 E0.01707
G1 X118.306 Y116.630 E0.22119
G1 X118.845 Y116.630 E0.01707
G1 X113.370 Y111.155 E0.24533
G1 X113.370 Y110.616 E0.01707
G1 X119.384 Y116.630 E0.26948
G1 X119.923 Y116.630 E0.01707
G1 X113.370 Y110.077 E0.29362
G1 X113.370 Y109.538 E0.01707
G1 X120.462 Y116.630 E0.31777
G1 X121.001 Y116.630 E0.01707
G1 X113.370 Y108.999 E0.34191
G1 X113.370 Y108.461 E0.01707
G1 X121.539 Y116.630 E0.36606
G1 X122.078 Y116.630 E0.01707
G1 X113.370 Y107.922 E0.39020
G1 X113.370 Y107.383 E0.01707
G1 X122.617 Y116.630 E0.41435
G1 X123.156 Y116.630 E0.01707
G1 X113.370 Y106.844 E0.43849
G1 X113.370 Y106.305 E0.01707
G1 X123.695 Y116.630 E0.46264
G1 X124.234 Y116.630 E0.01707
G1 X113.370 Y105.766 E0.48678
G1 X113.370 Y105.227 E0.01707
G1 X124.773 Y116.630 E0.51093
G1 X125.312 Y116.630 E0.01707
G1 X113.370 Y104.688 E0.53508
G1 X113.370 Y104.150 E0.01707
G1 X125.850 Y116.630 E0.55922
G1 X126.389 Y116.630 E0.01707
G1 X113.370 Y103.611 E0.58337
G1 X113.370 Y103.072 E0.01707
G1 X126.928 Y116.630 E0.60751
G1 X127.467 Y116.630 E0.01707
G1 X113.370 Y102.533 E0.63166
G1 X113.370 Y101.994 E0.01707
G1 X128.006 Y116.630 E0.65580
G1 X128.545 Y116.630 E0.01707
G1 X113.370 Y101.455 E0.67995
G1 X113.370 Y100.916 E0.01707
G1 X129.084 Y116.630 E0.70409
G1 X129.623 Y116.630 E0.01707
G1 X113.370 Y100.377 E0.72824
G1 X113.370 Y99.839 E0.01707
G1 X130.161 Y116.630 E0.75238
G1 X130.700 Y116.630 E0.01707
G1 X113.370 Y99.300 E0.77653
G1 X113.370 Y98.761 E0.01707
G1 X131.239 Y116.630 E0.80067
G1 X131.778 Y116.630 E0.01707
G1 X113.370 Y98.222 E0.82482
G1 X113.370 Y97.683 E0.01707
G1 X132.317 Y116.630 E0.84896
G1 X132.856 Y116.630 E0.01707
G1 X113.370 Y97.144 E0.87311
G1 X113.370 Y96.605 E0.01707
G1 X133.395 Y116.630 E0.89726
M73 Q0 S121
M73 P0 R120
G1 X133.934 Y116.630 E0.01707
G1 X113.370 Y96.066 E0.92140
G1 X113.370 Y95.528 E0.01707
G1 X134.472 Y116.630 E0.94555
G1 X135.011 Y116.630 E0.01707
G1 X113.370 Y94.989 E0.96969
G1 X113.370 Y94.450 E0.01707
G1 X135.550 Y116.630 E0.99384
G1 X136.089 Y116.630 E0.01707
G1 X113.370 Y93.911 E1.01798
G1 X113.370 Y93.558 E0.01117
G1 X113.404 Y93.424 E0.00439
G1 X113.414 Y93.417 E0.00040
G1 X136.583 Y116.586 E1.03814
G1 X136.630 Y116.442 E0.00478
G1 X136.630 Y116.094 E0.01105
G1 X113.907 Y93.370 E1.01818
G1 X114.446 Y93.370 E0.01708
G1 X136.630 Y115.555 E0.99402
G1 X136.630 Y115.016 E0.01707
G1 X114.985 Y93.371 E0.96986
G1 X115.524 Y93.371 E0.01708
G1 X136.630 Y114.477 E0.94570
G1 X136.630 Y113.938 E0.01707
G1 X116.063 Y93.371 E0.92154
G1 X116.602 Y93.371 E0.01708
G1 X136.630 Y113.399 E0.89739
G1 X136.630 Y112.860 E0.01707
G1 X117.142 Y93.372 E0.87323
G1 X117.681 Y93.372 E0.01708
G1 X136.630 Y112.321 E0.84907
G1 X136.630 Y111.783 E0.01707
G1 X118.220 Y93.372 E0.82491
G1 X118.759 Y93.373 E0.01708
G1 X136.630 Y111.244 E0.80076
G1 X136.630 Y110.705 E0.01707
G1 X119.298 Y93.373 E0.77660
G1 X119.837 Y93.373 E0.01708
G1 X136.630 Y110.166 E0.75244
G1 X136.630 Y109.627 E0.01707
G1 X120.376 Y93.373 E0.72828
G1 X120.916 Y93.374 E0.01708
G1 X136.630 Y109.088 E0.70412
G1 X136.630 Y108.549 E0.01707
G1 X121.455 Y93.374 E0.67997
G1 X121.994 Y93.374 E0.01708
G1 X136.630 Y108.010 E0.65581
G1 X136.630 Y107.472 E0.01707
G1 X122.533 Y93.375 E0.63165
G1 X123.072 Y93.375 E0.01708
G1 X136.630 Y106.933 E0.60749
G1 X136.630 Y106.394 E0.01707
G1 X123.611 Y93.375 E0.58334
G1 X124.151 Y93.375 E0.01708
G1 X136.630 Y105.855 E0.55918
G1 X136.630 Y105.316 E0.01707
G1 X124.690 Y93.376 E0.53502
G1 X125.229 Y93.376 E0.01708
G1 X136.630 Y104.777 E0.51086
G1 X136.630 Y104.238 E0.01707
G1 X125.768 Y93.376 E0.48670
G1 X126.307 Y93.377 E0.01708
G1 X136.630 Y103.700 E0.46255
G1 X136.630 Y103.161 E0.01707
G1 X126.846 Y93.377 E0.43839
G1 X127.385 Y93.377 E0.01708
G1 X136.630 Y102.622 E0.41423
G1 X136.630 Y102.083 E0.01707
G1 X127.925 Y93.377 E0.39007
G1 X128.464 Y93.378 E0.01708
G1 X136.630 Y101.544 E0.36591
G1 X136.630 Y101.005 E0.01707
G1 X129.003 Y93.378 E0.34176
G1 X129.542 Y93.378 E0.01708
G1 X136.630 Y100.466 E0.31760
G1 X136.630 Y99.927 E0.01707
G1 X130.081 Y93.378 E0.29344
G1 X130.620 Y93.379 E0.01708
G1 X136.630 Y99.389 E0.26928
G1 X136.630 Y98.850 E0.01707
G1 X131.159 Y93.379 E0.24513
G1 X131.699 Y93.379 E0.01708
G1 X136.630 Y98.311 E0.22097
G1 X136.630 Y97.772 E0.01707
G1 X132.238 Y93.380 E0.19681
G1 X132.777 Y93.380 E0.01708
G1 X136.630 Y97.233 E0.17265
G1 X136.630 Y96.694 E0.01707
G1 X133.316 Y93.380 E0.14849
G1 X133.855 Y93.380 E0.01708
G1 X136.630 Y96.155 E0.12434
G1 X136.630 Y95.616 E0.01707
G1 X134.394 Y93.381 E0.10018
G1 X134.934 Y93.381 E0.01708
G1 X136.630 Y95.078 E0.07602
G1 X136.630 Y94.539 E0.01707
G1 X135.473 Y93.381 E0.05186
G1 X136.012 Y93.382 E0.01708
G1 X136.800 Y94.170 E0.03531
G1 F8640
G1 X136.012 Y93.382 E-0.25732
G1 X135.473 Y93.381 E-0.12449
G1 X136.630 Y94.539 E-0.37796
G1 X136.630 Y94.540 E-0.00023
G1 E-0.04000 F2100.00000
G1 Z0.800 F10800.000
G1 X136.665 Y124.125
G1 Z0.200
G1 E0.80000 F2100.00000
G1 F1200
G1 X136.787 Y124.213 E0.00472
G1 X136.861 Y124.316 E0.00398
G1 X136.913 Y124.523 E0.00669
G1 X136.913 Y147.477 E0.71970
G1 X136.861 Y147.684 E0.00669
G1 X136.773 Y147.806 E0.00472
G1 X136.607 Y147.896 E0.00592
G1 X136.477 Y147.913 E0.00411
G1 X113.546 Y147.913 E0.71898
G1 X113.374 Y147.886 E0.00546
G1 X113.209 Y147.790 E0.00600
G1 X113.104 Y147.607 E0.00660
G1 X113.087 Y147.477 E0.00411
G1 X113.087 Y124.523 E0.71970
G1 X113.145 Y124.296 E0.00735
G1 X113.194 Y124.227 E0.00265
G1 X113.316 Y124.139 E0.00472
G1 X113.523 Y124.087 E0.00669
G1 X136.609 Y124.105 E0.72384
G1 X136.744 Y123.749 F10800.000
G1 F1200
G1 X136.851 Y123.793 E0.00361
G1 X137.057 Y123.943 E0.00799
G1 X137.202 Y124.143 E0.00772
G1 X137.280 Y124.385 E0.00799
G1 X137.290 Y124.508 E0.00388
G1 X137.290 Y147.492 E0.72063
G1 X137.280 Y147.615 E0.00388
G1 X137.202 Y147.857 E0.00799
G1 X137.052 Y148.064 E0.00799
G1 X136.970 Y148.133 E0.00336
G1 X136.739 Y148.251 E0.00814
G1 X136.492 Y148.290 E0.00785
G1 X113.517 Y148.290 E0.72037
G1 X113.257 Y148.249 E0.00825
G1 X113.033 Y148.135 E0.00788
G1 X112.942 Y148.058 E0.00374
G1 X112.867 Y147.970 E0.00361
G1 X112.749 Y147.739 E0.00814
G1 X112.710 Y147.492 E0.00785
G1 X112.710 Y124.508 E0.72063
G1 X112.720 Y124.385 E0.00389
G1 X112.800 Y124.138 E0.00814
G1 X112.936 Y123.948 E0.00733
G1 X113.143 Y123.798 E0.00799
G1 X113.385 Y123.720 E0.00799
G1 X113.508 Y123.710 E0.00388
G1 X136.628 Y123.722 E0.72491
G1 X136.686 Y123.736 E0.00186
G1 X136.774 Y123.861 F10800.000
G1 F8640
G1 X136.851 Y123.793 E-0.04032
G1 X137.057 Y123.943 E-0.05882
G1 X137.202 Y124.143 E-0.05688
G1 X137.280 Y124.385 E-0.05882
G1 X137.290 Y124.508 E-0.02859
G1 X137.290 Y126.745 E-0.51656
G1 E-0.04000 F2100.00000
G1 Z0.800 F10800.000
G1 X136.800 Y125.170
G1 Z0.200
G1 E0.80000 F2100.00000
G1 F1200
G1 X136.012 Y124.382 E0.03531
G1 X135.473 Y124.381 E0.01708
G1 X136.630 Y125.539 E0.05186
G1 X136.630 Y126.078 E0.01707
G1 X134.934 Y124.381 E0.07602
G1 X134.394 Y124.381 E0.01708
G1 X136.630 Y126.616 E0.10018
G1 X136.630 Y127.155 E0.01707
G1 X133.855 Y124.380 E0.12434
G1 X133.316 Y124.380 E0.01708
G1 X136.630 Y127.694 E0.14849
G1 X136.630 Y128.233 E0.01707
G1 X132.777 Y124.380 E0.17265
G1 X132.238 Y124.380 E0.01708
G1 X136.630 Y128.772 E0.19681
G1 X136.630 Y129.311 E0.01707
G1 X131.699 Y124.379 E0.22097
G1 X131.159 Y124.379 E0.01708
G1 X136.630 Y129.850 E0.24513
G1 X136.630 Y130.389 E0.01707
G1 X130.620 Y124.379 E0.26928
G1 X130.081 Y124.378 E0.01708
G1 X136.630 Y130.927 E0.29344
G1 X136.630 Y131.466 E0.01707
M73 Q1 S120
G1 X129.542 Y124.378 E0.31760
M73 P1 R119
G1 X129.003 Y124.378 E0.01708
G1 X136.630 Y132.005 E0.34176
G1 X136.630 Y132.544 E0.01707
G1 X128.464 Y124.378 E0.36591
G1 X127.925 Y124.377 E0.01708
G1 X136.630 Y133.083 E0.39007
G1 X136.630 Y133.622 E0.01707
G1 X127.385 Y124.377 E0.41423
G1 X126.846 Y124.377 E0.01708
G1 X136.630 Y134.161 E0.43839
G1 X136.630 Y134.700 E0.01707
G1 X126.307 Y124.377 E0.46255
G1 X125.768 Y124.376 E0.01708
G1 X136.630 Y135.238 E0.48670
G1 X136.630 Y135.777 E0.01707
G1 X125.229 Y124.376 E0.51086
G1 X124.690 Y124.376 E0.01708
G1 X136.630 Y136.316 E0.53502
G1 X136.630 Y136.855 E0.01707
G1 X124.151 Y124.375 E0.55918
G1 X123.611 Y124.375 E0.01708
G1 X136.630 Y137.394 E0.58334
G1 X136.630 Y137.933 E0.01707
G1 X123.072 Y124.375 E0.60749
G1 X122.533 Y124.375 E0.01708
G1 X136.630 Y138.472 E0.63165
G1 X136.630 Y139.010 E0.01707
G1 X121.994 Y124.374 E0.65581
G1 X121.455 Y124.374 E0.01708
G1 X136.630 Y139.549 E0.67997
G1 X136.630 Y140.088 E0.01707
G1 X120.916 Y124.374 E0.70412
G1 X120.376 Y124.373 E0.01708
G1 X136.630 Y140.627 E0.72828
G1 X136.630 Y141.166 E0.01707
G1 X119.837 Y124.373 E0.75244
G1 X119.298 Y124.373 E0.01708
G1 X136.630 Y141.705 E0.77660
G1 X136.630 Y142.244 E0.01707
G1 X118.759 Y124.373 E0.80076
G1 X118.220 Y124.372 E0.01708
G1 X136.630 Y142.783 E0.82491
G1 X136.630 Y143.321 E0.01707
G1 X117.681 Y124.372 E0.84907
G1 X117.142 Y124.372 E0.01708
G1 X136.630 Y143.860 E0.87323
G1 X136.630 Y144.399 E0.01707
G1 X116.602 Y124.371 E0.89739
G1 X116.063 Y124.371 E0.01708
G1 X136.630 Y144.938 E0.92154
G1 X136.630 Y145.477 E0.01707
G1 X115.524 Y124.371 E0.94570
G1 X114.985 Y124.371 E0.01708
G1 X136.630 Y146.016 E0.96986
G1 X136.630 Y146.555 E0.01707
G1 X114.446 Y124.370 E0.99402
G1 X113.907 Y124.370 E0.01708
G1 X136.630 Y147.094 E1.01818
G1 X136.630 Y147.442 E0.01105
G1 X136.583 Y147.586 E0.00478
G1 X113.414 Y124.417 E1.03814
G1 X113.404 Y124.424 E0.00040
G1 X113.370 Y124.558 E0.00439
G1 X113.370 Y124.911 E0.01117
G1 X136.089 Y147.630 E1.01798
G1 X135.550 Y147.630 E0.01707
G1 X113.370 Y125.450 E0.99384
G1 X113.370 Y125.989 E0.01707
G1 X135.011 Y147.630 E0.96969
G1 X134.472 Y147.630 E0.01707
G1 X113.370 Y126.528 E0.94555
G1 X113.370 Y127.066 E0.01707
G1 X133.934 Y147.630 E0.92140
G1 X133.395 Y147.630 E0.01707
G1 X113.370 Y127.605 E0.89726
G1 X113.370 Y128.144 E0.01707
G1 X132.856 Y147.630 E0.87311
G1 X132.317 Y147.630 E0.01707
G1 X113.370 Y128.683 E0.84896
G1 X113.370 Y129.222 E0.01707
G1 X131.778 Y147.630 E0.82482
G1 X131.239 Y147.630 E0.01707
G1 X113.370 Y129.761 E0.80067
G1 X113.370 Y130.300 E0.01707
G1 X130.700 Y147.630 E0.77653
G1 X130.161 Y147.630 E0.01707
G1 X113.370 Y130.839 E0.75238
G1 X113.370 Y131.377 E0.01707
G1 X129.623 Y147.630 E0.72824
G1 X129.084 Y147.630 E0.01707
G1 X113.370 Y131.916 E0.70409
G1 X113.370 Y132.455 E0.01707
G1 X128.545 Y147.630 E0.67995
G1 X128.006 Y147.630 E0.01707
G1 X113.370 Y132.994 E0.65580
G1 X113.370 Y133.533 E0.01707
G1 X127.467 Y147.630 E0.63166
G1 X126.928 Y147.630 E0.01707
G1 X113.370 Y134.072 E0.60751
G1 X113.370 Y134.611 E0.01707
G1 X126.389 Y147.630 E0.58337
G1 X125.850 Y147.630 E0.01707
G1 X113.370 Y135.150 E0.55922
M73 Q2 S119
G1 X113.370 Y135.688 E0.01707
G1 X125.312 Y147.630 E0.53508
M73 P2 R118
G1 X124.773 Y147.630 E0.01707
G1 X113.370 Y136.227 E0.51093
G1 X113.370 Y136.766 E0.01707
G1 X124.234 Y147.630 E0.48678
G1 X123.695 Y147.630 E0.01707
G1 X113.370 Y137.305 E0.46264
G1 X113.370 Y137.844 E0.01707
G1 X123.156 Y147.630 E0.43849
G1 X122.617 Y147.630 E0.01707
G1 X113.370 Y138.383 E0.41435
G1 X113.370 Y138.922 E0.01707
G1 X122.078 Y147.630 E0.39020
G1 X121.539 Y147.630 E0.01707
G1 X113.370 Y139.461 E0.36606
G1 X113.370 Y139.999 E0.01707
G1 X121.001 Y147.630 E0.34191
G1 X120.462 Y147.630 E0.01707
G1 X113.370 Y140.538 E0.31777
